; This gcode is generated by my specialised python script for my PCB manufacturer project :))

; Machine Initialization Sequence...

G21 ; to set metric units
G90 ; to set absolute mode , G91 for incremental mode
G94 ; To set the active feed rate mode to units per minute mode

M5 ; disabling spindle PWM
C0 ; Choosing the empty tool slot in the multiplexer circuits

B1 ; Turn ON Machine

$H ; Homing :)
G10 P0 L20 X0.0Y0.0Z0.0 ; Force Reset current coordinates after homing


; The following gcode is the PCB trace laser marking gcode

M5 ; Being extra sure it won't light up before activation

; Getting and Activating Tool-1, The Tool.Laser
G00X165.0Y0.0Z10.5 ; Go to Tool-1 Home Pos
G00X188 ; Enter Female Kinematic Mount Home Pos
A1 ; Latch on Kinematic Mount
G4 P5 ; Wait for Kinematic Mount to fully attach
G00X92 ; Exit Female Kinematic Mount Home Pos
#TODO X0.0Y0.0Z0.0 ;  ;Add tool offset coordinate
C1 ; Choosing tool 1 in the choose demultiplexer circuits

F400 ; setting default feedrate

G00Z16 ; Moving to correct focal length Z position

S200 ; Setting Laser Power

; Number of passes: 1

; Pass number: 1
G01 X119.29386Y11.01117
M3
G01 X119.23784Y10.94936
G01 X119.17603Y10.89334
G01 X119.10903Y10.84365
G01 X119.03749Y10.80077
G01 X118.96208Y10.7651
G01 X118.88354Y10.737
G01 X118.80263Y10.71673
G01 X118.72011Y10.70449
G01 X118.6368Y10.7004
G01 X118.55349Y10.70449
G01 X118.47097Y10.71673
G01 X118.39006Y10.737
G01 X118.38934Y10.73726
G01 X114.95724Y7.30516
G01 X114.92816Y7.2788
G01 X114.89663Y7.25541
G01 X114.86296Y7.23523
G01 X114.82747Y7.21845
G01 X114.79051Y7.20522
G01 X114.75244Y7.19569
G01 X114.71361Y7.18993
G01 X114.6744Y7.188
G01 X104.03782Y7.188
G01 X104.01118Y7.14354
G01 X103.96441Y7.08049
G01 X103.91169Y7.02231
G01 X103.85351Y6.96959
G01 X103.79046Y6.92282
G01 X103.72312Y6.88246
G01 X103.65215Y6.8489
G01 X103.57823Y6.82245
G01 X103.50207Y6.80337
G01 X103.42441Y6.79185
G01 X103.346Y6.788
G01 X103.26759Y6.79185
G01 X103.18993Y6.80337
G01 X103.13965Y6.81597
G01 X100.05404Y3.73036
G01 X100.02496Y3.704
G01 X99.99343Y3.68061
G01 X99.95976Y3.66043
G01 X99.92427Y3.64365
G01 X99.88731Y3.63042
G01 X99.84924Y3.62089
G01 X99.81041Y3.61513
G01 X99.7712Y3.6132
G01 X94.38139Y3.6132
G01 X94.34218Y3.61513
G01 X94.30335Y3.62089
G01 X94.26527Y3.63042
G01 X94.22831Y3.64365
G01 X94.19283Y3.66043
G01 X94.15916Y3.68061
G01 X94.12763Y3.704
G01 X94.09854Y3.73036
G01 X89.15996Y8.66894
G01 X89.15996Y8.66894
G01 X89.15996Y8.66894
G01 X89.14678Y8.68349
G01 X89.13359Y8.69803
G01 X89.13359Y8.69803
G01 X89.13359Y8.69803
G01 X89.1219Y8.71379
G01 X89.11021Y8.72956
G01 X89.11021Y8.72956
G01 X89.11021Y8.72956
G01 X89.10012Y8.74639
G01 X89.09003Y8.76323
G01 X89.09003Y8.76323
G01 X89.09003Y8.76323
G01 X89.08164Y8.78097
G01 X89.07325Y8.79871
G01 X89.07325Y8.79871
G01 X89.07325Y8.79871
G01 X89.06664Y8.81719
G01 X89.06002Y8.83567
G01 X89.06002Y8.83567
G01 X89.06002Y8.83567
G01 X89.05525Y8.85471
G01 X89.05048Y8.87375
G01 X89.05048Y8.87375
G01 X89.05048Y8.87375
G01 X89.0476Y8.89317
G01 X89.04473Y8.91258
G01 X89.04473Y8.91258
G01 X89.04473Y8.91258
G01 X89.04376Y8.93218
G01 X89.0428Y8.95179
G01 X89.0428Y8.95179
G01 X89.0428Y8.95179
G01 X89.0428Y12.67581
G01 X89.04376Y12.69542
G01 X89.04473Y12.71502
G01 X89.04473Y12.71502
G01 X89.04473Y12.71502
G01 X89.04761Y12.73444
G01 X89.05049Y12.75385
G01 X89.05049Y12.75385
G01 X89.05049Y12.75385
G01 X89.05525Y12.77289
G01 X89.06002Y12.79193
G01 X89.06002Y12.79193
G01 X89.06002Y12.79193
G01 X89.06664Y12.81041
G01 X89.07325Y12.82889
G01 X89.07325Y12.82889
G01 X89.07325Y12.82889
G01 X89.08164Y12.84663
G01 X89.09003Y12.86437
G01 X89.09003Y12.86437
G01 X89.09003Y12.86437
G01 X89.10012Y12.88121
G01 X89.11021Y12.89804
G01 X89.11021Y12.89804
G01 X89.11021Y12.89804
G01 X89.1219Y12.91381
G01 X89.1336Y12.92957
G01 X89.1336Y12.92957
G01 X89.1336Y12.92957
G01 X89.14678Y12.94411
G01 X89.15996Y12.95866
G01 X90.6524Y14.4511
G01 X90.6524Y21.18839
G01 X90.65433Y21.22759
G01 X90.66009Y21.26642
G01 X90.66962Y21.3045
G01 X90.68285Y21.34146
G01 X90.69963Y21.37694
G01 X90.71981Y21.41061
G01 X90.7432Y21.44214
G01 X90.76956Y21.47123
G01 X96.62557Y27.32724
G01 X96.65466Y27.3536
G01 X96.68619Y27.37699
G01 X96.71986Y27.39717
G01 X96.75534Y27.41395
G01 X96.7923Y27.42718
G01 X96.83038Y27.43671
G01 X96.86921Y27.44247
G01 X96.90841Y27.4444
G01 X98.44418Y27.4444
G01 X98.47082Y27.48886
G01 X98.51759Y27.55191
G01 X98.57031Y27.61009
G01 X98.62849Y27.66281
G01 X98.69154Y27.70958
G01 X98.75888Y27.74994
G01 X98.82985Y27.7835
G01 X98.90377Y27.80995
G01 X98.97993Y27.82903
G01 X99.05759Y27.84055
G01 X99.936Y27.8444
G01 X100.01441Y27.84055
G01 X100.09207Y27.82903
G01 X100.16823Y27.80995
G01 X100.24215Y27.7835
G01 X100.31312Y27.74994
G01 X100.38046Y27.70958
G01 X100.44351Y27.66281
G01 X100.50169Y27.61009
G01 X100.55441Y27.55191
G01 X100.60118Y27.48886
G01 X100.64154Y27.42152
G01 X100.6751Y27.35055
G01 X100.70155Y27.27663
G01 X100.72063Y27.20047
G01 X100.73215Y27.12281
G01 X100.736Y27.0444
G01 X100.73215Y26.96599
G01 X100.72063Y26.88833
G01 X100.70155Y26.81217
G01 X100.6751Y26.73825
G01 X100.64154Y26.66728
G01 X100.60118Y26.59994
G01 X100.55441Y26.53689
G01 X100.50169Y26.47871
G01 X100.44351Y26.42599
G01 X100.38046Y26.37922
G01 X100.31312Y26.33886
G01 X100.24215Y26.3053
G01 X100.16823Y26.27885
G01 X100.09207Y26.25977
G01 X100.01441Y26.24825
G01 X99.136Y26.2444
G01 X99.05759Y26.24825
G01 X98.97993Y26.25977
G01 X98.90377Y26.27885
G01 X98.82985Y26.3053
G01 X98.75888Y26.33886
G01 X98.69154Y26.37922
G01 X98.62849Y26.42599
G01 X98.57031Y26.47871
G01 X98.51759Y26.53689
G01 X98.47082Y26.59994
G01 X98.44418Y26.6444
G01 X97.0741Y26.6444
G01 X91.4524Y21.0227
G01 X91.4524Y14.28541
G01 X91.45047Y14.24621
G01 X91.44471Y14.20738
G01 X91.43518Y14.1693
G01 X91.42195Y14.13234
G01 X91.40517Y14.09686
G01 X91.38499Y14.06319
G01 X91.3616Y14.03166
G01 X91.33524Y14.00257
G01 X89.8428Y12.51013
G01 X89.8428Y9.11747
G01 X94.54707Y4.4132
G01 X99.60551Y4.4132
G01 X102.57397Y7.38165
G01 X102.56137Y7.43193
G01 X102.54985Y7.50959
G01 X102.546Y7.588
G01 X102.54985Y7.66641
G01 X102.56137Y7.74407
G01 X102.58045Y7.82023
G01 X102.6069Y7.89415
G01 X102.64046Y7.96512
G01 X102.68082Y8.03246
G01 X102.72759Y8.09551
G01 X102.78031Y8.15369
G01 X102.83849Y8.20641
G01 X102.90154Y8.25318
G01 X102.96888Y8.29354
G01 X103.03985Y8.3271
G01 X103.11377Y8.35355
G01 X103.18993Y8.37263
G01 X103.26759Y8.38415
G01 X103.346Y8.388
G01 X103.42441Y8.38415
G01 X103.50207Y8.37263
G01 X103.57823Y8.35355
G01 X103.65215Y8.3271
G01 X103.72312Y8.29354
G01 X103.79046Y8.25318
G01 X103.85351Y8.20641
G01 X103.91169Y8.15369
G01 X103.96441Y8.09551
G01 X104.01118Y8.03246
G01 X104.03782Y7.988
G01 X114.50871Y7.988
G01 X117.82366Y11.30294
G01 X117.8234Y11.30366
G01 X117.80313Y11.38457
G01 X117.79089Y11.46709
G01 X117.7868Y11.5504
G01 X117.79089Y11.63371
G01 X117.80313Y11.71623
G01 X117.8234Y11.79714
G01 X117.8515Y11.87568
G01 X117.88717Y11.95109
G01 X117.93005Y12.02263
G01 X117.97974Y12.08963
G01 X118.03576Y12.15144
G01 X118.09757Y12.20746
G01 X118.16457Y12.25715
G01 X118.23611Y12.30003
G01 X118.2368Y12.30036
G01 X118.2368Y15.30982
G01 X118.19937Y15.30427
G01 X118.1288Y15.3008
G01 X118.05823Y15.30427
G01 X117.98833Y15.31463
G01 X117.9198Y15.3318
G01 X117.85327Y15.35561
G01 X117.78939Y15.38582
G01 X117.72879Y15.42214
G01 X117.67204Y15.46423
G01 X117.61968Y15.51168
G01 X117.57223Y15.56404
G01 X117.53014Y15.62079
G01 X117.49382Y15.68139
G01 X117.46361Y15.74527
G01 X117.4398Y15.8118
G01 X117.42263Y15.88033
G01 X117.41227Y15.95023
G01 X117.4088Y16.0208
G01 X117.41227Y16.09137
G01 X117.42263Y16.16127
G01 X117.4398Y16.2298
G01 X117.46361Y16.29633
G01 X117.49382Y16.36021
G01 X117.53014Y16.42081
G01 X117.57223Y16.47756
G01 X117.61968Y16.52992
G01 X117.67204Y16.57737
G01 X117.72879Y16.61946
G01 X117.78939Y16.65578
G01 X117.85327Y16.68599
G01 X117.9198Y16.7098
G01 X117.98833Y16.72697
G01 X118.05823Y16.73733
G01 X118.1288Y16.7408
G01 X118.19937Y16.73733
G01 X118.26927Y16.72697
G01 X118.26928Y16.72696
G01 X123.142Y21.59969
G01 X123.142Y32.03191
G01 X122.39915Y32.77477
G01 X122.34887Y32.76217
G01 X122.27121Y32.75065
G01 X122.1928Y32.7468
G01 X122.11439Y32.75065
G01 X122.03673Y32.76217
G01 X121.96057Y32.78125
G01 X121.88665Y32.8077
G01 X121.81568Y32.84126
G01 X121.74834Y32.88162
G01 X121.68529Y32.92839
G01 X121.62711Y32.98111
G01 X121.57439Y33.03929
G01 X121.52762Y33.10234
G01 X121.48726Y33.16968
G01 X121.4537Y33.24065
G01 X121.42725Y33.31457
G01 X121.40817Y33.39073
G01 X121.39665Y33.46839
G01 X121.3928Y33.5468
G01 X121.39665Y33.62521
G01 X121.40817Y33.70287
G01 X121.42077Y33.75315
G01 X113.01156Y42.16235
G01 X102.87524Y42.16235
G01 X101.7108Y40.99791
G01 X101.7108Y40.2136
G01 X100.5108Y40.2136
G01 X100.5108Y40.99791
G01 X97.30351Y44.2052
G01 X87.10129Y44.2052
G01 X85.27603Y42.37995
G01 X85.28863Y42.32967
G01 X85.30015Y42.25201
G01 X85.304Y42.1736
G01 X85.30015Y42.09519
G01 X85.28863Y42.01753
G01 X85.26955Y41.94137
G01 X85.2431Y41.86745
G01 X85.20954Y41.79648
G01 X85.16918Y41.72914
G01 X85.12241Y41.66609
G01 X85.06969Y41.60791
G01 X85.01151Y41.55519
G01 X84.94846Y41.50842
G01 X84.88112Y41.46806
G01 X84.81015Y41.4345
G01 X84.73623Y41.40805
G01 X84.66007Y41.38897
G01 X84.58241Y41.37745
G01 X84.504Y41.3736
G01 X84.42559Y41.37745
G01 X84.34793Y41.38897
G01 X84.29765Y41.40157
G01 X83.504Y40.60791
G01 X83.504Y35.24489
G01 X84.29765Y34.45123
G01 X84.34793Y34.46383
G01 X84.42559Y34.47535
G01 X84.504Y34.4792
G01 X84.58241Y34.47535
G01 X84.66007Y34.46383
G01 X84.73623Y34.44475
G01 X84.81015Y34.4183
G01 X84.88112Y34.38474
G01 X84.94846Y34.34438
G01 X85.01151Y34.29761
G01 X85.06969Y34.24489
G01 X85.12241Y34.18671
G01 X85.16918Y34.12366
G01 X85.20954Y34.05632
G01 X85.2431Y33.98535
G01 X85.26955Y33.91143
G01 X85.28863Y33.83527
G01 X85.30015Y33.75761
G01 X85.304Y33.6792
G01 X85.30015Y33.60079
G01 X85.28863Y33.52313
G01 X85.26955Y33.44697
G01 X85.2431Y33.37305
G01 X85.20954Y33.30208
G01 X85.16918Y33.23474
G01 X85.12241Y33.17169
G01 X85.06969Y33.11351
G01 X85.01151Y33.06079
G01 X84.94846Y33.01402
G01 X84.88112Y32.97366
G01 X84.81015Y32.9401
G01 X84.73623Y32.91365
G01 X84.66007Y32.89457
G01 X84.58241Y32.88305
G01 X84.504Y32.8792
G01 X84.42559Y32.88305
G01 X84.34793Y32.89457
G01 X84.27177Y32.91365
G01 X84.19785Y32.9401
G01 X84.12688Y32.97366
G01 X84.05954Y33.01402
G01 X83.99649Y33.06079
G01 X83.93831Y33.11351
G01 X83.88559Y33.17169
G01 X83.83882Y33.23474
G01 X83.79846Y33.30208
G01 X83.7649Y33.37305
G01 X83.73845Y33.44697
G01 X83.71937Y33.52313
G01 X83.70785Y33.60079
G01 X83.704Y33.6792
G01 X83.70785Y33.75761
G01 X83.71937Y33.83527
G01 X83.73197Y33.88555
G01 X82.82116Y34.79636
G01 X82.7948Y34.82544
G01 X82.77141Y34.85697
G01 X82.75123Y34.89064
G01 X82.73445Y34.92613
G01 X82.72122Y34.96309
G01 X82.71169Y35.00116
G01 X82.70593Y35.03999
G01 X82.704Y35.0792
G01 X82.704Y40.7736
G01 X82.70593Y40.81281
G01 X82.71169Y40.85164
G01 X82.72122Y40.88971
G01 X82.73445Y40.92667
G01 X82.75123Y40.96216
G01 X82.77141Y40.99583
G01 X82.7948Y41.02736
G01 X82.82116Y41.05644
G01 X83.73197Y41.96725
G01 X83.71937Y42.01753
G01 X83.70785Y42.09519
G01 X83.704Y42.1736
G01 X83.70785Y42.25201
G01 X83.71937Y42.32967
G01 X83.73845Y42.40583
G01 X83.7649Y42.47975
G01 X83.79846Y42.55072
G01 X83.83882Y42.61806
G01 X83.88559Y42.68111
G01 X83.93831Y42.73929
G01 X83.99649Y42.79201
G01 X84.05954Y42.83878
G01 X84.12688Y42.87914
G01 X84.19785Y42.9127
G01 X84.27177Y42.93915
G01 X84.34793Y42.95823
G01 X84.42559Y42.96975
G01 X84.504Y42.9736
G01 X84.58241Y42.96975
G01 X84.66007Y42.95823
G01 X84.71035Y42.94563
G01 X86.65276Y44.88804
G01 X86.68184Y44.9144
G01 X86.71337Y44.93779
G01 X86.74704Y44.95797
G01 X86.78253Y44.97475
G01 X86.81949Y44.98798
G01 X86.85756Y44.99751
G01 X86.89639Y45.00327
G01 X86.9356Y45.0052
G01 X97.4692Y45.0052
G01 X97.50841Y45.00327
G01 X97.54724Y44.99751
G01 X97.58531Y44.98798
G01 X97.62227Y44.97475
G01 X97.65776Y44.95797
G01 X97.69143Y44.93779
G01 X97.72296Y44.9144
G01 X97.75204Y44.88804
G01 X100.92649Y41.7136
G01 X101.29511Y41.7136
G01 X102.42671Y42.8452
G01 X102.4558Y42.87156
G01 X102.48732Y42.89494
G01 X102.52099Y42.91512
G01 X102.55648Y42.9319
G01 X102.59344Y42.94513
G01 X102.63152Y42.95467
G01 X102.67035Y42.96043
G01 X102.70955Y42.96235
G01 X113.17725Y42.96235
G01 X113.21645Y42.96043
G01 X113.25528Y42.95467
G01 X113.29336Y42.94513
G01 X113.33032Y42.9319
G01 X113.36581Y42.91512
G01 X113.39948Y42.89494
G01 X113.431Y42.87156
G01 X113.46009Y42.8452
G01 X121.98645Y34.31883
G01 X122.03673Y34.33143
G01 X122.11439Y34.34295
G01 X122.1928Y34.3468
G01 X122.27121Y34.34295
G01 X122.34887Y34.33143
G01 X122.42503Y34.31235
G01 X122.49895Y34.2859
G01 X122.56992Y34.25234
G01 X122.63726Y34.21198
G01 X122.70031Y34.16521
G01 X122.75849Y34.11249
G01 X122.81121Y34.05431
G01 X122.85798Y33.99126
G01 X122.89834Y33.92392
G01 X122.9319Y33.85295
G01 X122.95835Y33.77903
G01 X122.97743Y33.70287
G01 X122.98895Y33.62521
G01 X122.9928Y33.5468
G01 X122.98895Y33.46839
G01 X122.97743Y33.39073
G01 X122.96483Y33.34045
G01 X123.82484Y32.48044
G01 X123.8512Y32.45136
G01 X123.87459Y32.41983
G01 X123.89477Y32.38616
G01 X123.91155Y32.35067
G01 X123.92478Y32.31371
G01 X123.93431Y32.27564
G01 X123.94007Y32.23681
G01 X123.942Y32.1976
G01 X123.942Y21.434
G01 X123.94007Y21.39479
G01 X123.93431Y21.35596
G01 X123.92478Y21.31789
G01 X123.91155Y21.28093
G01 X123.89477Y21.24544
G01 X123.87459Y21.21177
G01 X123.8512Y21.18024
G01 X123.82484Y21.15116
G01 X118.83496Y16.16128
G01 X118.83497Y16.16127
G01 X118.84533Y16.09137
G01 X118.8488Y16.0208
G01 X118.84533Y15.95023
G01 X118.83497Y15.88033
G01 X118.83496Y15.88032
G01 X118.91964Y15.79564
G01 X118.93107Y15.78303
G01 X118.946Y15.76656
G01 X118.95684Y15.75194
G01 X118.96939Y15.73503
G01 X118.98957Y15.70136
G01 X119.00635Y15.66587
G01 X119.01603Y15.63883
G01 X119.01958Y15.62891
G01 X119.02911Y15.59084
G01 X119.03487Y15.55201
G01 X119.0368Y15.5128
G01 X119.0368Y12.30036
G01 X119.03749Y12.30003
G01 X119.10903Y12.25715
G01 X119.17603Y12.20746
G01 X119.23784Y12.15144
G01 X119.29386Y12.08963
G01 X119.34355Y12.02263
G01 X119.38643Y11.95109
G01 X119.4221Y11.87568
G01 X119.4502Y11.79714
G01 X119.47047Y11.71623
G01 X119.48271Y11.63371
G01 X119.4868Y11.5504
G01 X119.48271Y11.46709
G01 X119.47047Y11.38457
G01 X119.4502Y11.30366
G01 X119.4221Y11.22512
G01 X119.38643Y11.14971
G01 X119.34355Y11.07817
G01 X119.29386Y11.01117
G01 X119.29386Y11.01117
M5
G01 X91.50559Y41.66609
M3
G01 X91.45882Y41.72914
G01 X91.41846Y41.79648
G01 X91.3849Y41.86745
G01 X91.35845Y41.94137
G01 X91.33937Y42.01753
G01 X91.32785Y42.09519
G01 X91.324Y42.1736
G01 X91.32785Y42.25201
G01 X91.33937Y42.32967
G01 X91.35845Y42.40583
G01 X91.3849Y42.47975
G01 X91.41846Y42.55072
G01 X91.45882Y42.61806
G01 X91.50559Y42.68111
G01 X91.55831Y42.73929
G01 X91.61649Y42.79201
G01 X91.67954Y42.83878
G01 X91.74688Y42.87914
G01 X91.81785Y42.9127
G01 X91.89177Y42.93915
G01 X91.96793Y42.95823
G01 X92.04559Y42.96975
G01 X92.124Y42.9736
G01 X92.20241Y42.96975
G01 X92.28007Y42.95823
G01 X92.35623Y42.93915
G01 X92.43015Y42.9127
G01 X92.50112Y42.87914
G01 X92.56846Y42.83878
G01 X92.63151Y42.79201
G01 X92.68969Y42.73929
G01 X92.74241Y42.68111
G01 X92.78918Y42.61806
G01 X92.82954Y42.55072
G01 X92.8631Y42.47975
G01 X92.88955Y42.40583
G01 X92.90863Y42.32967
G01 X92.92015Y42.25201
G01 X92.924Y42.1736
G01 X92.92015Y42.09519
G01 X92.90863Y42.01753
G01 X92.89603Y41.96725
G01 X93.76289Y41.1004
G01 X94.98324Y41.1004
G01 X94.98357Y41.10109
G01 X95.02645Y41.17263
G01 X95.07614Y41.23963
G01 X95.13216Y41.30144
G01 X95.19397Y41.35746
G01 X95.26097Y41.40715
G01 X95.33251Y41.45003
G01 X95.40792Y41.4857
G01 X95.48646Y41.5138
G01 X95.56737Y41.53407
G01 X95.64989Y41.54631
G01 X96.0332Y41.5504
G01 X96.11651Y41.54631
G01 X96.19903Y41.53407
G01 X96.27994Y41.5138
G01 X96.35848Y41.4857
G01 X96.43389Y41.45003
G01 X96.50543Y41.40715
G01 X96.57243Y41.35746
G01 X96.63424Y41.30144
G01 X96.69026Y41.23963
G01 X96.73995Y41.17263
G01 X96.78283Y41.10109
G01 X96.8185Y41.02568
G01 X96.8466Y40.94714
G01 X96.86687Y40.86623
G01 X96.87911Y40.78371
G01 X96.8832Y40.7004
G01 X96.87911Y40.61709
G01 X96.86687Y40.53457
G01 X96.8466Y40.45366
G01 X96.8185Y40.37512
G01 X96.78283Y40.29971
G01 X96.73995Y40.22817
G01 X96.69026Y40.16117
G01 X96.63424Y40.09936
G01 X96.57243Y40.04334
G01 X96.50543Y39.99365
G01 X96.43389Y39.95077
G01 X96.35848Y39.9151
G01 X96.27994Y39.887
G01 X96.19903Y39.86673
G01 X96.11651Y39.85449
G01 X95.7332Y39.8504
G01 X95.64989Y39.85449
G01 X95.56737Y39.86673
G01 X95.48646Y39.887
G01 X95.40792Y39.9151
G01 X95.33251Y39.95077
G01 X95.26097Y39.99365
G01 X95.19397Y40.04334
G01 X95.13216Y40.09936
G01 X95.07614Y40.16117
G01 X95.02645Y40.22817
G01 X94.98357Y40.29971
G01 X94.98324Y40.3004
G01 X93.5972Y40.3004
G01 X93.55799Y40.30233
G01 X93.51916Y40.30809
G01 X93.48109Y40.31762
G01 X93.44413Y40.33085
G01 X93.40864Y40.34763
G01 X93.37497Y40.36781
G01 X93.34344Y40.3912
G01 X93.31436Y40.41756
G01 X92.33035Y41.40157
G01 X92.28007Y41.38897
G01 X92.20241Y41.37745
G01 X92.124Y41.3736
G01 X92.04559Y41.37745
G01 X91.96793Y41.38897
G01 X91.89177Y41.40805
G01 X91.81785Y41.4345
G01 X91.74688Y41.46806
G01 X91.67954Y41.50842
G01 X91.61649Y41.55519
G01 X91.55831Y41.60791
G01 X91.50559Y41.66609
G01 X91.50559Y41.66609
M5
G01 X72.66411Y27.2306
M3
G01 X71.9548Y27.2306
G01 X71.9548Y27.3556
G01 X69.60721Y27.3556
G01 X69.59067Y27.32802
G01 X69.53499Y27.25294
G01 X69.47222Y27.18368
G01 X69.40296Y27.12091
G01 X69.32788Y27.06523
G01 X69.24771Y27.01717
G01 X69.16321Y26.9772
G01 X69.0752Y26.94571
G01 X68.98452Y26.923
G01 X68.89206Y26.90929
G01 X68.7037Y26.9047
G01 X68.61034Y26.90929
G01 X68.51788Y26.923
G01 X68.4272Y26.94571
G01 X68.33919Y26.9772
G01 X68.25469Y27.01717
G01 X68.17452Y27.06523
G01 X68.09944Y27.12091
G01 X68.03018Y27.18368
G01 X67.96741Y27.25294
G01 X67.91173Y27.32802
G01 X67.89519Y27.3556
G01 X53.28005Y27.3556
G01 X53.23307Y27.27722
G01 X53.17739Y27.20214
G01 X53.11462Y27.13288
G01 X53.04536Y27.07011
G01 X52.97028Y27.01443
G01 X52.89011Y26.96637
G01 X52.80561Y26.9264
G01 X52.7176Y26.89491
G01 X52.62692Y26.8722
G01 X52.53446Y26.85849
G01 X52.3461Y26.8539
G01 X52.25274Y26.85849
G01 X52.16028Y26.8722
G01 X52.0696Y26.89491
G01 X51.98159Y26.9264
G01 X51.89709Y26.96637
G01 X51.81692Y27.01443
G01 X51.74184Y27.07011
G01 X51.67258Y27.13288
G01 X51.60981Y27.20214
G01 X51.55413Y27.27722
G01 X51.50715Y27.3556
G01 X36.89591Y27.3556
G01 X36.87273Y27.30659
G01 X36.82467Y27.22642
G01 X36.76899Y27.15134
G01 X36.70622Y27.08208
G01 X36.63696Y27.01931
G01 X36.56188Y26.96363
G01 X36.48171Y26.91557
G01 X36.39721Y26.8756
G01 X36.3092Y26.84411
G01 X36.21852Y26.8214
G01 X36.12606Y26.80769
G01 X35.9377Y26.8031
G01 X35.84434Y26.80769
G01 X35.75188Y26.8214
G01 X35.6612Y26.84411
G01 X35.57319Y26.8756
G01 X35.48869Y26.91557
G01 X35.40852Y26.96363
G01 X35.33344Y27.01931
G01 X35.26418Y27.08208
G01 X35.20141Y27.15134
G01 X35.14573Y27.22642
G01 X35.09767Y27.30659
G01 X35.07449Y27.3556
G01 X20.43671Y27.3556
G01 X20.41353Y27.30659
G01 X20.36547Y27.22642
G01 X20.30979Y27.15134
G01 X20.24702Y27.08208
G01 X20.17776Y27.01931
G01 X20.10268Y26.96363
G01 X20.02251Y26.91557
G01 X19.93801Y26.8756
G01 X19.85Y26.84411
G01 X19.75932Y26.8214
G01 X19.66686Y26.80769
G01 X19.4785Y26.8031
G01 X19.38514Y26.80769
G01 X19.29268Y26.8214
G01 X19.202Y26.84411
G01 X19.11399Y26.8756
G01 X19.02949Y26.91557
G01 X18.94932Y26.96363
G01 X18.87424Y27.01931
G01 X18.80498Y27.08208
G01 X18.74221Y27.15134
G01 X18.68653Y27.22642
G01 X18.63847Y27.30659
G01 X18.5985Y27.39109
G01 X18.56701Y27.4791
G01 X18.5443Y27.56978
G01 X18.53059Y27.66224
G01 X18.526Y27.7556
G01 X18.53059Y27.84896
G01 X18.5443Y27.94142
G01 X18.56701Y28.0321
G01 X18.5985Y28.12011
G01 X18.63847Y28.20461
G01 X18.68653Y28.28478
G01 X18.74221Y28.35986
G01 X18.80498Y28.42912
G01 X18.87424Y28.49189
G01 X18.94932Y28.54757
G01 X19.02949Y28.59563
G01 X19.11399Y28.6356
G01 X19.202Y28.66709
G01 X19.29268Y28.6898
G01 X19.38514Y28.70351
G01 X19.5735Y28.7081
G01 X19.66686Y28.70351
G01 X19.75932Y28.6898
G01 X19.85Y28.66709
G01 X19.93801Y28.6356
G01 X20.02251Y28.59563
G01 X20.10268Y28.54757
G01 X20.17776Y28.49189
G01 X20.24702Y28.42912
G01 X20.30979Y28.35986
G01 X20.36547Y28.28478
G01 X20.41353Y28.20461
G01 X20.43671Y28.1556
G01 X35.07449Y28.1556
G01 X35.09767Y28.20461
G01 X35.14573Y28.28478
G01 X35.20141Y28.35986
G01 X35.26418Y28.42912
G01 X35.33344Y28.49189
G01 X35.40852Y28.54757
G01 X35.48869Y28.59563
G01 X35.57319Y28.6356
G01 X35.6612Y28.66709
G01 X35.75188Y28.6898
G01 X35.84434Y28.70351
G01 X36.0327Y28.7081
G01 X36.12606Y28.70351
G01 X36.21852Y28.6898
G01 X36.3092Y28.66709
G01 X36.39721Y28.6356
G01 X36.48171Y28.59563
G01 X36.56188Y28.54757
G01 X36.63696Y28.49189
G01 X36.70622Y28.42912
G01 X36.76899Y28.35986
G01 X36.82467Y28.28478
G01 X36.87273Y28.20461
G01 X36.89591Y28.1556
G01 X51.46063Y28.1556
G01 X51.4661Y28.17091
G01 X51.50607Y28.25541
G01 X51.55413Y28.33558
G01 X51.60981Y28.41066
G01 X51.67258Y28.47992
G01 X51.74184Y28.54269
G01 X51.81692Y28.59837
G01 X51.89709Y28.64643
G01 X51.98159Y28.6864
G01 X52.0696Y28.71789
G01 X52.16028Y28.7406
G01 X52.25274Y28.75431
G01 X52.4411Y28.7589
G01 X52.53446Y28.75431
G01 X52.62692Y28.7406
G01 X52.7176Y28.71789
G01 X52.80561Y28.6864
G01 X52.89011Y28.64643
G01 X52.97028Y28.59837
G01 X53.04536Y28.54269
G01 X53.11462Y28.47992
G01 X53.17739Y28.41066
G01 X53.23307Y28.33558
G01 X53.28113Y28.25541
G01 X53.3211Y28.17091
G01 X53.32657Y28.1556
G01 X67.80005Y28.1556
G01 X67.8237Y28.22171
G01 X67.86367Y28.30621
G01 X67.91173Y28.38638
G01 X67.96741Y28.46146
G01 X68.03018Y28.53072
G01 X68.09944Y28.59349
G01 X68.17452Y28.64917
G01 X68.25469Y28.69723
G01 X68.33919Y28.7372
G01 X68.4272Y28.76869
G01 X68.51788Y28.7914
G01 X68.61034Y28.80511
G01 X68.7987Y28.8097
G01 X68.89206Y28.80511
G01 X68.98452Y28.7914
G01 X69.0752Y28.76869
G01 X69.16321Y28.7372
G01 X69.24771Y28.69723
G01 X69.32788Y28.64917
G01 X69.40296Y28.59349
G01 X69.47222Y28.53072
G01 X69.53499Y28.46146
G01 X69.59067Y28.38638
G01 X69.63873Y28.30621
G01 X69.6787Y28.22171
G01 X69.70235Y28.1556
G01 X71.9548Y28.1556
G01 X71.9548Y28.2806
G01 X73.4548Y28.2806
G01 X73.4548Y27.57129
G01 X73.70764Y27.31844
G01 X73.734Y27.28936
G01 X73.75739Y27.25783
G01 X73.77757Y27.22416
G01 X73.79435Y27.18867
G01 X73.80758Y27.15171
G01 X73.81711Y27.11364
G01 X73.82287Y27.07481
G01 X73.8248Y27.0356
G01 X73.8248Y25.3342
G01 X74.1748Y25.3342
G01 X74.1748Y24.2842
G01 X72.6748Y24.2842
G01 X72.6748Y25.3342
G01 X73.0248Y25.3342
G01 X73.0248Y26.86991
G01 X72.66411Y27.2306
G01 X72.66411Y27.2306
M5
G01 X72.07397Y28.69254
M3
G01 X72.04328Y28.73393
G01 X72.01679Y28.77812
G01 X71.99476Y28.82469
G01 X71.97741Y28.8732
G01 X71.96489Y28.92318
G01 X71.95733Y28.97414
G01 X71.9548Y29.0256
G01 X71.95733Y29.07706
G01 X71.96489Y29.12802
G01 X71.97741Y29.178
G01 X71.99476Y29.22651
G01 X72.01679Y29.27308
G01 X72.04328Y29.31727
G01 X72.07397Y29.35866
G01 X72.10857Y29.39683
G01 X72.14674Y29.43143
G01 X72.18813Y29.46212
G01 X72.23232Y29.48861
G01 X72.27889Y29.51064
G01 X72.3274Y29.52799
G01 X72.37738Y29.54051
G01 X72.42834Y29.54807
G01 X72.9298Y29.5506
G01 X72.98126Y29.54807
G01 X73.03222Y29.54051
G01 X73.0822Y29.52799
G01 X73.13071Y29.51064
G01 X73.17728Y29.48861
G01 X73.22147Y29.46212
G01 X73.26286Y29.43143
G01 X73.26929Y29.4256
G01 X73.55833Y29.4256
G01 X73.59753Y29.42367
G01 X73.63636Y29.41791
G01 X73.67444Y29.40838
G01 X73.7114Y29.39515
G01 X73.74689Y29.37837
G01 X73.78056Y29.35819
G01 X73.81209Y29.3348
G01 X73.84117Y29.30844
G01 X76.19684Y26.95277
G01 X76.2232Y26.92369
G01 X76.24659Y26.89216
G01 X76.26677Y26.85849
G01 X76.28355Y26.823
G01 X76.29678Y26.78604
G01 X76.30631Y26.74796
G01 X76.31207Y26.70913
G01 X76.314Y26.66993
G01 X76.314Y23.70489
G01 X76.77445Y23.24443
G01 X76.82473Y23.25703
G01 X76.90239Y23.26855
G01 X76.9808Y23.2724
G01 X77.05921Y23.26855
G01 X77.13687Y23.25703
G01 X77.18715Y23.24443
G01 X78.80338Y24.86067
G01 X78.79605Y24.88117
G01 X78.77697Y24.95733
G01 X78.76545Y25.03499
G01 X78.7616Y25.1134
G01 X78.76545Y25.19181
G01 X78.77697Y25.26947
G01 X78.79605Y25.34563
G01 X78.8225Y25.41955
G01 X78.85606Y25.49052
G01 X78.89642Y25.55786
G01 X78.94319Y25.62091
G01 X78.99591Y25.67909
G01 X79.05409Y25.73181
G01 X79.11714Y25.77858
G01 X79.18448Y25.81894
G01 X79.25545Y25.8525
G01 X79.32937Y25.87895
G01 X79.40553Y25.89803
G01 X79.48319Y25.90955
G01 X79.5616Y25.9134
G01 X79.64001Y25.90955
G01 X79.71767Y25.89803
G01 X79.79383Y25.87895
G01 X79.86775Y25.8525
G01 X79.93872Y25.81894
G01 X80.00606Y25.77858
G01 X80.06911Y25.73181
G01 X80.12729Y25.67909
G01 X80.18001Y25.62091
G01 X80.22678Y25.55786
G01 X80.26714Y25.49052
G01 X80.3007Y25.41955
G01 X80.32715Y25.34563
G01 X80.34623Y25.26947
G01 X80.35775Y25.19181
G01 X80.3616Y25.1134
G01 X80.35775Y25.03499
G01 X80.34623Y24.95733
G01 X80.32715Y24.88117
G01 X80.3007Y24.80725
G01 X80.26714Y24.73628
G01 X80.22678Y24.66894
G01 X80.18001Y24.60589
G01 X80.12729Y24.54771
G01 X80.06911Y24.49499
G01 X80.00606Y24.44822
G01 X79.93872Y24.40786
G01 X79.86775Y24.3743
G01 X79.79383Y24.34785
G01 X79.71767Y24.32877
G01 X79.64001Y24.31725
G01 X79.5616Y24.3134
G01 X79.48319Y24.31725
G01 X79.40553Y24.32877
G01 X79.40339Y24.32931
G01 X77.75283Y22.67875
G01 X77.76543Y22.62847
G01 X77.77695Y22.55081
G01 X77.7808Y22.4724
G01 X77.77695Y22.39399
G01 X77.76543Y22.31633
G01 X77.74635Y22.24017
G01 X77.7199Y22.16625
G01 X77.68634Y22.09528
G01 X77.64598Y22.02794
G01 X77.59921Y21.96489
G01 X77.54649Y21.90671
G01 X77.48831Y21.85399
G01 X77.42526Y21.80722
G01 X77.35792Y21.76686
G01 X77.28695Y21.7333
G01 X77.21303Y21.70685
G01 X77.13687Y21.68777
G01 X77.05921Y21.67625
G01 X76.9808Y21.6724
G01 X76.90239Y21.67625
G01 X76.82473Y21.68777
G01 X76.74857Y21.70685
G01 X76.67465Y21.7333
G01 X76.60368Y21.76686
G01 X76.53634Y21.80722
G01 X76.47329Y21.85399
G01 X76.41511Y21.90671
G01 X76.36239Y21.96489
G01 X76.31562Y22.02794
G01 X76.27526Y22.09528
G01 X76.2417Y22.16625
G01 X76.21525Y22.24017
G01 X76.19617Y22.31633
G01 X76.18465Y22.39399
G01 X76.1808Y22.4724
G01 X76.18465Y22.55081
G01 X76.19617Y22.62847
G01 X76.20877Y22.67875
G01 X75.74831Y23.1392
G01 X73.98929Y23.1392
G01 X73.98286Y23.13337
G01 X73.94147Y23.10268
G01 X73.89728Y23.07619
G01 X73.85071Y23.05416
G01 X73.8022Y23.03681
G01 X73.75222Y23.02429
G01 X73.70126Y23.01673
G01 X73.1998Y23.0142
G01 X73.14834Y23.01673
G01 X73.09738Y23.02429
G01 X73.0474Y23.03681
G01 X72.99889Y23.05416
G01 X72.95232Y23.07619
G01 X72.90813Y23.10268
G01 X72.86674Y23.13337
G01 X72.82857Y23.16797
G01 X72.79397Y23.20614
G01 X72.76328Y23.24753
G01 X72.73679Y23.29172
G01 X72.71476Y23.33829
G01 X72.69741Y23.3868
G01 X72.68489Y23.43678
G01 X72.67733Y23.48774
G01 X72.6748Y23.5392
G01 X72.67733Y23.59066
G01 X72.68489Y23.64162
G01 X72.69741Y23.6916
G01 X72.71476Y23.74011
G01 X72.73679Y23.78668
G01 X72.76328Y23.83087
G01 X72.79397Y23.87226
G01 X72.82857Y23.91043
G01 X72.86674Y23.94503
G01 X72.90813Y23.97572
G01 X72.95232Y24.00221
G01 X72.99889Y24.02424
G01 X73.0474Y24.04159
G01 X73.09738Y24.05411
G01 X73.14834Y24.06167
G01 X73.6498Y24.0642
G01 X73.70126Y24.06167
G01 X73.75222Y24.05411
G01 X73.8022Y24.04159
G01 X73.85071Y24.02424
G01 X73.89728Y24.00221
G01 X73.94147Y23.97572
G01 X73.98286Y23.94503
G01 X73.98929Y23.9392
G01 X75.514Y23.9392
G01 X75.514Y26.50424
G01 X73.39264Y28.6256
G01 X73.26929Y28.6256
G01 X73.26286Y28.61977
G01 X73.22147Y28.58908
G01 X73.17728Y28.56259
G01 X73.13071Y28.54056
G01 X73.0822Y28.52321
G01 X73.03222Y28.51069
G01 X72.98126Y28.50313
G01 X72.4798Y28.5006
G01 X72.42834Y28.50313
G01 X72.37738Y28.51069
G01 X72.3274Y28.52321
G01 X72.27889Y28.54056
G01 X72.23232Y28.56259
G01 X72.18813Y28.58908
G01 X72.14674Y28.61977
G01 X72.10857Y28.65437
G01 X72.07397Y28.69254
G01 X72.07397Y28.69254
M5
G01 X77.42526Y30.75758
M3
G01 X77.48831Y30.71081
G01 X77.54649Y30.65809
G01 X77.59921Y30.59991
G01 X77.64598Y30.53686
G01 X77.68634Y30.46952
G01 X77.7199Y30.39855
G01 X77.74635Y30.32463
G01 X77.76543Y30.24847
G01 X77.77695Y30.17081
G01 X77.7808Y30.0924
G01 X77.77695Y30.01399
G01 X77.76543Y29.93633
G01 X77.75283Y29.88605
G01 X82.25444Y25.38444
G01 X82.2808Y25.35536
G01 X82.30419Y25.32383
G01 X82.32437Y25.29016
G01 X82.34115Y25.25467
G01 X82.35438Y25.21771
G01 X82.36391Y25.17964
G01 X82.36967Y25.14081
G01 X82.3716Y25.1016
G01 X82.3716Y16.8968
G01 X82.36967Y16.85759
G01 X82.36391Y16.81876
G01 X82.35438Y16.78069
G01 X82.34115Y16.74373
G01 X82.32437Y16.70824
G01 X82.30419Y16.67457
G01 X82.2808Y16.64304
G01 X82.25444Y16.61396
G01 X77.75283Y12.11235
G01 X77.76543Y12.06207
G01 X77.77695Y11.98441
G01 X77.7808Y11.906
G01 X77.77695Y11.82759
G01 X77.76543Y11.74993
G01 X77.74635Y11.67377
G01 X77.7199Y11.59985
G01 X77.68634Y11.52888
G01 X77.64598Y11.46154
G01 X77.59921Y11.39849
G01 X77.54649Y11.34031
G01 X77.48831Y11.28759
G01 X77.42526Y11.24082
G01 X77.35792Y11.20046
G01 X77.28695Y11.1669
G01 X77.21303Y11.14045
G01 X77.13687Y11.12137
G01 X77.05921Y11.10985
G01 X76.9808Y11.106
G01 X76.90239Y11.10985
G01 X76.82473Y11.12137
G01 X76.77445Y11.13397
G01 X76.65404Y11.01356
G01 X76.62496Y10.9872
G01 X76.59343Y10.96381
G01 X76.55976Y10.94363
G01 X76.52427Y10.92685
G01 X76.48731Y10.91362
G01 X76.44924Y10.90409
G01 X76.41041Y10.89833
G01 X76.3712Y10.8964
G01 X73.98929Y10.8964
G01 X73.98286Y10.89057
G01 X73.94147Y10.85988
G01 X73.89728Y10.83339
G01 X73.85071Y10.81136
G01 X73.8022Y10.79401
G01 X73.75222Y10.78149
G01 X73.70126Y10.77393
G01 X73.1998Y10.7714
G01 X73.14834Y10.77393
G01 X73.09738Y10.78149
G01 X73.0474Y10.79401
G01 X72.99889Y10.81136
G01 X72.95232Y10.83339
G01 X72.90813Y10.85988
G01 X72.86674Y10.89057
G01 X72.82857Y10.92517
G01 X72.79397Y10.96334
G01 X72.76328Y11.00473
G01 X72.73679Y11.04892
G01 X72.71476Y11.09549
G01 X72.69741Y11.144
G01 X72.68489Y11.19398
G01 X72.67733Y11.24494
G01 X72.6748Y11.2964
G01 X72.67733Y11.34786
G01 X72.68489Y11.39882
G01 X72.69741Y11.4488
G01 X72.71476Y11.49731
G01 X72.73679Y11.54388
G01 X72.76328Y11.58807
G01 X72.79397Y11.62946
G01 X72.82857Y11.66763
G01 X72.86674Y11.70223
G01 X72.90813Y11.73292
G01 X72.95232Y11.75941
G01 X72.99889Y11.78144
G01 X73.0474Y11.79879
G01 X73.09738Y11.81131
G01 X73.14834Y11.81887
G01 X73.6498Y11.8214
G01 X73.70126Y11.81887
G01 X73.75222Y11.81131
G01 X73.8022Y11.79879
G01 X73.85071Y11.78144
G01 X73.89728Y11.75941
G01 X73.94147Y11.73292
G01 X73.98286Y11.70223
G01 X73.98929Y11.6964
G01 X76.20551Y11.6964
G01 X76.20877Y11.69965
G01 X76.19617Y11.74993
G01 X76.18465Y11.82759
G01 X76.1808Y11.906
G01 X76.18465Y11.98441
G01 X76.19617Y12.06207
G01 X76.21525Y12.13823
G01 X76.2417Y12.21215
G01 X76.27526Y12.28312
G01 X76.31562Y12.35046
G01 X76.36239Y12.41351
G01 X76.41511Y12.47169
G01 X76.47329Y12.52441
G01 X76.53634Y12.57118
G01 X76.60368Y12.61154
G01 X76.67465Y12.6451
G01 X76.74857Y12.67155
G01 X76.82473Y12.69063
G01 X76.90239Y12.70215
G01 X76.9808Y12.706
G01 X77.05921Y12.70215
G01 X77.13687Y12.69063
G01 X77.18715Y12.67803
G01 X81.5716Y17.06249
G01 X81.5716Y24.93591
G01 X77.18715Y29.32037
G01 X77.13687Y29.30777
G01 X77.05921Y29.29625
G01 X76.9808Y29.2924
G01 X76.90239Y29.29625
G01 X76.82473Y29.30777
G01 X76.74857Y29.32685
G01 X76.67465Y29.3533
G01 X76.60368Y29.38686
G01 X76.53634Y29.42722
G01 X76.47329Y29.47399
G01 X76.41511Y29.52671
G01 X76.36239Y29.58489
G01 X76.31562Y29.64794
G01 X76.27526Y29.71528
G01 X76.2417Y29.78625
G01 X76.21525Y29.86017
G01 X76.20637Y29.8956
G01 X73.26929Y29.8956
G01 X73.26286Y29.88977
G01 X73.22147Y29.85908
G01 X73.17728Y29.83259
G01 X73.13071Y29.81056
G01 X73.0822Y29.79321
G01 X73.03222Y29.78069
G01 X72.98126Y29.77313
G01 X72.4798Y29.7706
G01 X72.42834Y29.77313
G01 X72.37738Y29.78069
G01 X72.3274Y29.79321
G01 X72.27889Y29.81056
G01 X72.23232Y29.83259
G01 X72.18813Y29.85908
G01 X72.14674Y29.88977
G01 X72.10857Y29.92437
G01 X72.07397Y29.96254
G01 X72.04328Y30.00393
G01 X72.01679Y30.04812
G01 X71.99476Y30.09469
G01 X71.97741Y30.1432
G01 X71.96489Y30.19318
G01 X71.95733Y30.24414
G01 X71.9548Y30.2956
G01 X71.95733Y30.34706
G01 X71.96489Y30.39802
G01 X71.97741Y30.448
G01 X71.97986Y30.45486
G01 X64.20791Y38.2268
G01 X24.57708Y38.2268
G01 X24.56821Y38.19137
G01 X24.51862Y38.05277
G01 X24.45568Y37.9197
G01 X24.38Y37.79344
G01 X24.29232Y37.67521
G01 X24.19346Y37.56614
G01 X24.08439Y37.46728
G01 X23.96616Y37.3796
G01 X23.8399Y37.30392
G01 X23.70683Y37.24098
G01 X23.56823Y37.19139
G01 X23.42544Y37.15562
G01 X23.27983Y37.13402
G01 X23.1328Y37.1268
G01 X22.98577Y37.13402
G01 X22.84016Y37.15562
G01 X22.69737Y37.19139
G01 X22.55877Y37.24098
G01 X22.4257Y37.30392
G01 X22.29944Y37.3796
G01 X22.18121Y37.46728
G01 X22.07214Y37.56614
G01 X21.97328Y37.67521
G01 X21.8856Y37.79344
G01 X21.80992Y37.9197
G01 X21.74698Y38.05277
G01 X21.69739Y38.19137
G01 X21.66294Y38.32889
G01 X19.56703Y40.4248
G01 X16.13217Y40.4248
G01 X14.0664Y38.35903
G01 X14.0664Y37.1268
G01 X11.0664Y37.1268
G01 X11.0664Y38.35903
G01 X9.00063Y40.4248
G01 X6.88205Y40.4248
G01 X5.7864Y39.32915
G01 X5.7864Y21.11417
G01 X10.88311Y16.01746
G01 X11.02063Y15.98301
G01 X11.15923Y15.93342
G01 X11.2923Y15.87048
G01 X11.41856Y15.7948
G01 X11.53679Y15.70712
G01 X11.64586Y15.60826
G01 X11.74472Y15.49919
G01 X11.8324Y15.38096
G01 X11.90808Y15.2547
G01 X11.97102Y15.12163
G01 X12.02061Y14.98303
G01 X12.05638Y14.84024
G01 X12.07798Y14.69463
G01 X12.0852Y14.5476
G01 X12.07798Y14.40057
G01 X12.05638Y14.25496
G01 X12.02061Y14.11217
G01 X11.97102Y13.97357
G01 X11.90808Y13.8405
G01 X11.8324Y13.71424
G01 X11.74472Y13.59601
G01 X11.64586Y13.48694
G01 X11.53679Y13.38808
G01 X11.41856Y13.3004
G01 X11.2923Y13.22472
G01 X11.15923Y13.16178
G01 X11.02063Y13.11219
G01 X10.87784Y13.07642
G01 X10.73223Y13.05482
G01 X10.5852Y13.0476
G01 X10.43817Y13.05482
G01 X10.29256Y13.07642
G01 X10.14977Y13.11219
G01 X10.01117Y13.16178
G01 X9.8781Y13.22472
G01 X9.75184Y13.3004
G01 X9.63361Y13.38808
G01 X9.52454Y13.48694
G01 X9.42568Y13.59601
G01 X9.338Y13.71424
G01 X9.26232Y13.8405
G01 X9.19938Y13.97357
G01 X9.14979Y14.11217
G01 X9.11534Y14.24969
G01 X3.65252Y19.71252
G01 X3.57014Y19.80341
G01 X3.49706Y19.90194
G01 X3.434Y20.00715
G01 X3.38155Y20.11805
G01 X3.34022Y20.23354
G01 X3.31042Y20.35254
G01 X3.29242Y20.47388
G01 X3.2864Y20.5964
G01 X3.2864Y39.84692
G01 X3.2881Y39.88149
G01 X3.29242Y39.96944
G01 X3.31042Y40.09078
G01 X3.34022Y40.20977
G01 X3.36244Y40.27185
G01 X3.38155Y40.32527
G01 X3.40341Y40.3715
G01 X3.434Y40.43616
G01 X3.49706Y40.54138
G01 X3.5307Y40.58673
G01 X3.57014Y40.63991
G01 X3.61256Y40.68672
G01 X3.65252Y40.7308
G01 X5.4804Y42.55868
G01 X5.52158Y42.596
G01 X5.57129Y42.64106
G01 X5.66982Y42.71414
G01 X5.77504Y42.7772
G01 X5.88593Y42.82965
G01 X5.97437Y42.8613
G01 X6.00143Y42.87098
G01 X6.02067Y42.87579
G01 X6.12042Y42.90078
G01 X6.22827Y42.91678
G01 X6.24176Y42.91878
G01 X6.36428Y42.9248
G01 X9.5184Y42.9248
G01 X12.5664Y42.9248
G01 X15.6144Y42.9248
G01 X20.0848Y42.9248
G01 X20.20732Y42.91878
G01 X20.32866Y42.90078
G01 X20.44766Y42.87098
G01 X20.56315Y42.82965
G01 X20.67405Y42.7772
G01 X20.77926Y42.71414
G01 X20.87779Y42.64106
G01 X20.96868Y42.55868
G01 X23.43071Y40.09666
G01 X23.56823Y40.06221
G01 X23.70683Y40.01262
G01 X23.8399Y39.94968
G01 X23.96616Y39.874
G01 X24.08439Y39.78632
G01 X24.19346Y39.68746
G01 X24.29232Y39.57839
G01 X24.38Y39.46016
G01 X24.45568Y39.3339
G01 X24.51862Y39.20083
G01 X24.56821Y39.06223
G01 X24.57708Y39.0268
G01 X64.3736Y39.0268
G01 X64.41281Y39.02487
G01 X64.45164Y39.01911
G01 X64.48971Y39.00958
G01 X64.52667Y38.99635
G01 X64.56216Y38.97957
G01 X64.59583Y38.95939
G01 X64.62736Y38.936
G01 X64.65644Y38.90964
G01 X72.74641Y30.81968
G01 X72.9298Y30.8206
G01 X72.98126Y30.81807
G01 X73.03222Y30.81051
G01 X73.0822Y30.79799
G01 X73.13071Y30.78064
G01 X73.17728Y30.75861
G01 X73.22147Y30.73212
G01 X73.26286Y30.70143
G01 X73.26929Y30.6956
G01 X76.45651Y30.6956
G01 X76.47329Y30.71081
G01 X76.53634Y30.75758
G01 X76.60368Y30.79794
G01 X76.67465Y30.8315
G01 X76.74857Y30.85795
G01 X76.82473Y30.87703
G01 X76.90239Y30.88855
G01 X76.9808Y30.8924
G01 X77.05921Y30.88855
G01 X77.13687Y30.87703
G01 X77.21303Y30.85795
G01 X77.28695Y30.8315
G01 X77.35792Y30.79794
G01 X77.42526Y30.75758
G01 X77.42526Y30.75758
M5
G01 X19.28214Y29.06962
M3
G01 X19.28214Y29.06962
G01 X19.28092Y29.06992
G01 X19.16314Y29.09942
G01 X19.16314Y29.09942
G01 X19.16314Y29.09942
G01 X19.15466Y29.10246
G01 X19.04765Y29.14075
G01 X18.93675Y29.1932
G01 X18.83154Y29.25626
G01 X18.83154Y29.25626
G01 X18.83154Y29.25626
G01 X18.80941Y29.27267
G01 X18.73301Y29.32934
G01 X18.71782Y29.3431
G01 X18.526Y29.3431
G01 X18.526Y29.52783
G01 X17.16892Y30.88492
G01 X17.08654Y30.97581
G01 X17.03552Y31.0446
G01 X17.01346Y31.07434
G01 X17.01346Y31.07434
G01 X17.01346Y31.07434
G01 X17.00073Y31.09558
G01 X16.9504Y31.17955
G01 X16.89795Y31.29045
G01 X16.89494Y31.29887
G01 X16.85662Y31.40594
G01 X16.82682Y31.52494
G01 X16.80882Y31.64628
G01 X16.80369Y31.75075
G01 X16.8028Y31.7688
G01 X16.8028Y31.7688
G01 X16.8028Y37.1268
G01 X16.5528Y37.1268
G01 X16.5528Y40.1268
G01 X19.5528Y40.1268
G01 X19.5528Y38.89457
G01 X20.96868Y37.47868
G01 X20.96868Y37.47868
G01 X21.01408Y37.42859
G01 X21.05106Y37.38779
G01 X21.12414Y37.28926
G01 X21.1872Y37.18405
G01 X21.23965Y37.07315
G01 X21.28098Y36.95766
G01 X21.31078Y36.83866
G01 X21.32878Y36.71732
G01 X21.33426Y36.60577
G01 X21.3348Y36.5948
G01 X21.3348Y36.5948
G01 X21.3348Y32.38817
G01 X22.07577Y31.6472
G01 X68.7512Y31.6472
G01 X68.87372Y31.64118
G01 X68.99506Y31.62318
G01 X69.11406Y31.59338
G01 X69.22955Y31.55205
G01 X69.34045Y31.4996
G01 X69.44566Y31.43654
G01 X69.54419Y31.36346
G01 X69.55938Y31.3497
G01 X69.7512Y31.3497
G01 X69.7512Y31.1447
G01 X69.79054Y31.09166
G01 X69.8536Y30.98645
G01 X69.90605Y30.87555
G01 X69.94738Y30.76006
G01 X69.97718Y30.64106
G01 X69.99518Y30.51972
G01 X70.0012Y30.3972
G01 X69.99518Y30.27468
G01 X69.97718Y30.15334
G01 X69.94738Y30.03434
G01 X69.90605Y29.91885
G01 X69.8536Y29.80795
G01 X69.79054Y29.70274
G01 X69.7512Y29.6497
G01 X69.7512Y29.4447
G01 X69.55938Y29.4447
G01 X69.54419Y29.43094
G01 X69.44566Y29.35786
G01 X69.34045Y29.2948
G01 X69.22955Y29.24235
G01 X69.11406Y29.20102
G01 X68.99506Y29.17122
G01 X68.87372Y29.15322
G01 X68.7512Y29.1472
G01 X21.558Y29.1472
G01 X20.01799Y29.1472
G01 X20.00435Y29.14075
G01 X19.88886Y29.09942
G01 X19.88886Y29.09942
G01 X19.88886Y29.09942
G01 X19.76986Y29.06962
G01 X19.64852Y29.05162
G01 X19.54405Y29.04649
G01 X19.526Y29.0456
G01 X19.526Y29.0456
G01 X19.526Y29.0456
G01 X19.50701Y29.04653
G01 X19.40348Y29.05162
G01 X19.28214Y29.06962
G01 X19.28214Y29.06962
M5
G01 X114.75423Y28.82595
M3
G01 X114.82815Y28.7995
G01 X114.89912Y28.76594
G01 X114.96646Y28.72558
G01 X115.02951Y28.67881
G01 X115.08769Y28.62609
G01 X115.14041Y28.56791
G01 X115.18718Y28.50486
G01 X115.22754Y28.43752
G01 X115.2611Y28.36655
G01 X115.28755Y28.29263
G01 X115.30663Y28.21647
G01 X115.31815Y28.13881
G01 X115.322Y28.0604
G01 X115.31815Y27.98199
G01 X115.30663Y27.90433
G01 X115.28755Y27.82817
G01 X115.2611Y27.75425
G01 X115.22754Y27.68328
G01 X115.18718Y27.61594
G01 X115.14041Y27.55289
G01 X115.08769Y27.49471
G01 X115.02951Y27.44199
G01 X114.96646Y27.39522
G01 X114.89912Y27.35486
G01 X114.82815Y27.3213
G01 X114.75423Y27.29485
G01 X114.67807Y27.27577
G01 X114.60041Y27.26425
G01 X114.522Y27.2604
G01 X114.44359Y27.26425
G01 X114.36593Y27.27577
G01 X114.28977Y27.29485
G01 X114.21585Y27.3213
G01 X114.14488Y27.35486
G01 X114.07754Y27.39522
G01 X114.01449Y27.44199
G01 X113.95631Y27.49471
G01 X113.90359Y27.55289
G01 X113.85682Y27.61594
G01 X113.83018Y27.6604
G01 X112.8856Y27.6604
G01 X112.84639Y27.66233
G01 X112.80756Y27.66809
G01 X112.76949Y27.67762
G01 X112.73253Y27.69085
G01 X112.69704Y27.70763
G01 X112.66337Y27.72781
G01 X112.63184Y27.7512
G01 X112.60276Y27.77756
G01 X111.40671Y28.9736
G01 X110.6224Y28.9736
G01 X110.6224Y29.1736
G01 X108.24135Y29.1736
G01 X108.22118Y29.13994
G01 X108.17441Y29.07689
G01 X108.12169Y29.01871
G01 X108.06351Y28.96599
G01 X108.00046Y28.91922
G01 X107.93312Y28.87886
G01 X107.86215Y28.8453
G01 X107.78823Y28.81885
G01 X107.71207Y28.79977
G01 X107.63441Y28.78825
G01 X106.756Y28.7844
G01 X106.67759Y28.78825
G01 X106.59993Y28.79977
G01 X106.52377Y28.81885
G01 X106.44985Y28.8453
G01 X106.37888Y28.87886
G01 X106.31154Y28.91922
G01 X106.24849Y28.96599
G01 X106.19031Y29.01871
G01 X106.13759Y29.07689
G01 X106.09082Y29.13994
G01 X106.05046Y29.20728
G01 X106.0169Y29.27825
G01 X105.99045Y29.35217
G01 X105.97137Y29.42833
G01 X105.95985Y29.50599
G01 X105.956Y29.5844
G01 X105.95985Y29.66281
G01 X105.97137Y29.74047
G01 X105.99045Y29.81663
G01 X106.0169Y29.89055
G01 X106.05046Y29.96152
G01 X106.09082Y30.02886
G01 X106.13759Y30.09191
G01 X106.19031Y30.15009
G01 X106.24849Y30.20281
G01 X106.31154Y30.24958
G01 X106.37888Y30.28994
G01 X106.44985Y30.3235
G01 X106.52377Y30.34995
G01 X106.59993Y30.36903
G01 X106.67759Y30.38055
G01 X107.556Y30.3844
G01 X107.63441Y30.38055
G01 X107.71207Y30.36903
G01 X107.78823Y30.34995
G01 X107.86215Y30.3235
G01 X107.93312Y30.28994
G01 X108.00046Y30.24958
G01 X108.06351Y30.20281
G01 X108.12169Y30.15009
G01 X108.17441Y30.09191
G01 X108.22118Y30.02886
G01 X108.25429Y29.9736
G01 X110.6224Y29.9736
G01 X110.6224Y30.1736
G01 X112.1224Y30.1736
G01 X112.1224Y29.38929
G01 X113.05129Y28.4604
G01 X113.83018Y28.4604
G01 X113.85682Y28.50486
G01 X113.90359Y28.56791
G01 X113.95631Y28.62609
G01 X114.01449Y28.67881
G01 X114.07754Y28.72558
G01 X114.14488Y28.76594
G01 X114.21585Y28.7995
G01 X114.28977Y28.82595
G01 X114.36593Y28.84503
G01 X114.44359Y28.85655
G01 X114.522Y28.8604
G01 X114.60041Y28.85655
G01 X114.67807Y28.84503
G01 X114.75423Y28.82595
G01 X114.75423Y28.82595
M5
G01 X115.3119Y33.24065
M3
G01 X115.27834Y33.16968
G01 X115.23798Y33.10234
G01 X115.19121Y33.03929
G01 X115.13849Y32.98111
G01 X115.08031Y32.92839
G01 X115.01726Y32.88162
G01 X114.94992Y32.84126
G01 X114.87895Y32.8077
G01 X114.80503Y32.78125
G01 X114.72887Y32.76217
G01 X114.65121Y32.75065
G01 X114.5728Y32.7468
G01 X114.49439Y32.75065
G01 X114.41673Y32.76217
G01 X114.34057Y32.78125
G01 X114.26665Y32.8077
G01 X114.19568Y32.84126
G01 X114.12834Y32.88162
G01 X114.06529Y32.92839
G01 X114.00711Y32.98111
G01 X113.95439Y33.03929
G01 X113.90762Y33.10234
G01 X113.88098Y33.1468
G01 X113.01129Y33.1468
G01 X112.29346Y32.42898
G01 X112.3077Y32.39888
G01 X112.3358Y32.32034
G01 X112.35607Y32.23943
G01 X112.36831Y32.15691
G01 X112.3724Y32.0736
G01 X112.36831Y31.99029
G01 X112.35607Y31.90777
G01 X112.3358Y31.82686
G01 X112.3077Y31.74832
G01 X112.27203Y31.67291
G01 X112.22915Y31.60137
G01 X112.17946Y31.53437
G01 X112.12344Y31.47256
G01 X112.06163Y31.41654
G01 X111.99463Y31.36685
G01 X111.92309Y31.32397
G01 X111.84768Y31.2883
G01 X111.76914Y31.2602
G01 X111.68823Y31.23993
G01 X111.60571Y31.22769
G01 X111.2224Y31.2236
G01 X111.13909Y31.22769
G01 X111.05657Y31.23993
G01 X110.97566Y31.2602
G01 X110.89712Y31.2883
G01 X110.82171Y31.32397
G01 X110.75017Y31.36685
G01 X110.68317Y31.41654
G01 X110.62136Y31.47256
G01 X110.56534Y31.53437
G01 X110.51565Y31.60137
G01 X110.47277Y31.67291
G01 X110.4371Y31.74832
G01 X110.409Y31.82686
G01 X110.38873Y31.90777
G01 X110.37649Y31.99029
G01 X110.3724Y32.0736
G01 X110.37649Y32.15691
G01 X110.38873Y32.23943
G01 X110.409Y32.32034
G01 X110.4371Y32.39888
G01 X110.47277Y32.47429
G01 X110.51565Y32.54583
G01 X110.56534Y32.61283
G01 X110.62136Y32.67464
G01 X110.68317Y32.73066
G01 X110.75017Y32.78035
G01 X110.82171Y32.82323
G01 X110.89712Y32.8589
G01 X110.97566Y32.887
G01 X111.05657Y32.90727
G01 X111.13909Y32.91951
G01 X111.5224Y32.9236
G01 X111.60571Y32.91951
G01 X111.64656Y32.91345
G01 X112.56276Y33.82964
G01 X112.59184Y33.856
G01 X112.62337Y33.87939
G01 X112.65704Y33.89957
G01 X112.69253Y33.91635
G01 X112.72949Y33.92958
G01 X112.76756Y33.93911
G01 X112.80639Y33.94487
G01 X112.8456Y33.9468
G01 X113.88098Y33.9468
G01 X113.90762Y33.99126
G01 X113.95439Y34.05431
G01 X114.00711Y34.11249
G01 X114.06529Y34.16521
G01 X114.12834Y34.21198
G01 X114.19568Y34.25234
G01 X114.26665Y34.2859
G01 X114.34057Y34.31235
G01 X114.41673Y34.33143
G01 X114.49439Y34.34295
G01 X114.5728Y34.3468
G01 X114.65121Y34.34295
G01 X114.72887Y34.33143
G01 X114.80503Y34.31235
G01 X114.87895Y34.2859
G01 X114.94992Y34.25234
G01 X115.01726Y34.21198
G01 X115.08031Y34.16521
G01 X115.13849Y34.11249
G01 X115.19121Y34.05431
G01 X115.23798Y33.99126
G01 X115.27834Y33.92392
G01 X115.3119Y33.85295
G01 X115.33835Y33.77903
G01 X115.35743Y33.70287
G01 X115.36895Y33.62521
G01 X115.3728Y33.5468
G01 X115.36895Y33.46839
G01 X115.35743Y33.39073
G01 X115.33835Y33.31457
G01 X115.3119Y33.24065
G01 X115.3119Y33.24065
M5
G01 X88.75759Y25.66671
M3
G01 X88.81031Y25.72489
G01 X88.86849Y25.77761
G01 X88.93154Y25.82438
G01 X88.99888Y25.86474
G01 X89.06985Y25.8983
G01 X89.14377Y25.92475
G01 X89.21993Y25.94383
G01 X89.29759Y25.95535
G01 X89.376Y25.9592
G01 X89.45441Y25.95535
G01 X89.53207Y25.94383
G01 X89.60823Y25.92475
G01 X89.68215Y25.8983
G01 X89.75312Y25.86474
G01 X89.82046Y25.82438
G01 X89.88351Y25.77761
G01 X89.94169Y25.72489
G01 X89.99441Y25.66671
G01 X90.04118Y25.60366
G01 X90.08154Y25.53632
G01 X90.1151Y25.46535
G01 X90.14155Y25.39143
G01 X90.16063Y25.31527
G01 X90.17215Y25.23761
G01 X90.176Y25.1592
G01 X90.17215Y25.08079
G01 X90.16063Y25.00313
G01 X90.14155Y24.92697
G01 X90.1151Y24.85305
G01 X90.08154Y24.78208
G01 X90.04118Y24.71474
G01 X89.99441Y24.65169
G01 X89.94169Y24.59351
G01 X89.88351Y24.54079
G01 X89.82046Y24.49402
G01 X89.75312Y24.45366
G01 X89.68215Y24.4201
G01 X89.60823Y24.39365
G01 X89.53207Y24.37457
G01 X89.45441Y24.36305
G01 X89.376Y24.3592
G01 X89.29759Y24.36305
G01 X89.21993Y24.37457
G01 X89.14377Y24.39365
G01 X89.06985Y24.4201
G01 X88.99888Y24.45366
G01 X88.93154Y24.49402
G01 X88.86849Y24.54079
G01 X88.81031Y24.59351
G01 X88.75759Y24.65169
G01 X88.71082Y24.71474
G01 X88.68418Y24.7592
G01 X87.9816Y24.7592
G01 X87.9816Y24.3134
G01 X86.3816Y24.3134
G01 X86.3816Y25.9134
G01 X87.9816Y25.9134
G01 X87.9816Y25.5592
G01 X88.68418Y25.5592
G01 X88.71082Y25.60366
G01 X88.75759Y25.66671
G01 X88.75759Y25.66671
M5
G01 X83.7649Y27.88665
M3
G01 X83.73845Y27.96057
G01 X83.71937Y28.03673
G01 X83.70785Y28.11439
G01 X83.704Y28.1928
G01 X83.70785Y28.27121
G01 X83.71937Y28.34887
G01 X83.73845Y28.42503
G01 X83.7649Y28.49895
G01 X83.79846Y28.56992
G01 X83.83882Y28.63726
G01 X83.88559Y28.70031
G01 X83.93831Y28.75849
G01 X83.99649Y28.81121
G01 X84.05954Y28.85798
G01 X84.12688Y28.89834
G01 X84.19785Y28.9319
G01 X84.27177Y28.95835
G01 X84.34793Y28.97743
G01 X84.42559Y28.98895
G01 X84.504Y28.9928
G01 X84.58241Y28.98895
G01 X84.66007Y28.97743
G01 X84.71035Y28.96483
G01 X85.504Y29.75849
G01 X85.504Y35.12151
G01 X84.71035Y35.91517
G01 X84.66007Y35.90257
G01 X84.58241Y35.89105
G01 X84.504Y35.8872
G01 X84.42559Y35.89105
G01 X84.34793Y35.90257
G01 X84.27177Y35.92165
G01 X84.19785Y35.9481
G01 X84.12688Y35.98166
G01 X84.05954Y36.02202
G01 X83.99649Y36.06879
G01 X83.93831Y36.12151
G01 X83.88559Y36.17969
G01 X83.83882Y36.24274
G01 X83.79846Y36.31008
G01 X83.7649Y36.38105
G01 X83.73845Y36.45497
G01 X83.71937Y36.53113
G01 X83.70785Y36.60879
G01 X83.704Y36.6872
G01 X83.70785Y36.76561
G01 X83.71937Y36.84327
G01 X83.73845Y36.91943
G01 X83.7649Y36.99335
G01 X83.79846Y37.06432
G01 X83.83882Y37.13166
G01 X83.88559Y37.19471
G01 X83.93831Y37.25289
G01 X83.99649Y37.30561
G01 X84.05954Y37.35238
G01 X84.12688Y37.39274
G01 X84.19785Y37.4263
G01 X84.27177Y37.45275
G01 X84.34793Y37.47183
G01 X84.42559Y37.48335
G01 X84.504Y37.4872
G01 X84.58241Y37.48335
G01 X84.66007Y37.47183
G01 X84.71035Y37.45923
G01 X91.13916Y43.88804
G01 X91.16824Y43.9144
G01 X91.19977Y43.93779
G01 X91.23344Y43.95797
G01 X91.26893Y43.97475
G01 X91.30589Y43.98798
G01 X91.34396Y43.99751
G01 X91.38279Y44.00327
G01 X91.422Y44.0052
G01 X95.3196Y44.0052
G01 X95.35881Y44.00327
G01 X95.39764Y43.99751
G01 X95.43571Y43.98798
G01 X95.47267Y43.97475
G01 X95.50816Y43.95797
G01 X95.54183Y43.93779
G01 X95.57336Y43.9144
G01 X95.60244Y43.88804
G01 X99.72689Y39.7636
G01 X102.84137Y39.7636
G01 X103.16736Y40.08959
G01 X103.13857Y40.10685
G01 X103.07157Y40.15654
G01 X103.00976Y40.21256
G01 X102.95374Y40.27437
G01 X102.90405Y40.34137
G01 X102.86117Y40.41291
G01 X102.8255Y40.48832
G01 X102.7974Y40.56686
G01 X102.77713Y40.64777
G01 X102.76489Y40.73029
G01 X102.7608Y41.1136
G01 X102.76489Y41.19691
G01 X102.77713Y41.27943
G01 X102.7974Y41.36034
G01 X102.8255Y41.43888
G01 X102.86117Y41.51429
G01 X102.90405Y41.58583
G01 X102.95374Y41.65283
G01 X103.00976Y41.71464
G01 X103.07157Y41.77066
G01 X103.13857Y41.82035
G01 X103.21011Y41.86323
G01 X103.28552Y41.8989
G01 X103.36406Y41.927
G01 X103.44497Y41.94727
G01 X103.52749Y41.95951
G01 X103.6108Y41.9636
G01 X103.69411Y41.95951
G01 X103.77663Y41.94727
G01 X103.85754Y41.927
G01 X103.93608Y41.8989
G01 X104.01149Y41.86323
G01 X104.08303Y41.82035
G01 X104.15003Y41.77066
G01 X104.21184Y41.71464
G01 X104.26786Y41.65283
G01 X104.31755Y41.58583
G01 X104.36043Y41.51429
G01 X104.3961Y41.43888
G01 X104.4242Y41.36034
G01 X104.44447Y41.27943
G01 X104.45671Y41.19691
G01 X104.4608Y40.8136
G01 X104.45671Y40.73029
G01 X104.44447Y40.64777
G01 X104.4242Y40.56686
G01 X104.3961Y40.48832
G01 X104.36043Y40.41291
G01 X104.31755Y40.34137
G01 X104.26786Y40.27437
G01 X104.21184Y40.21256
G01 X104.15003Y40.15654
G01 X104.08303Y40.10685
G01 X104.01149Y40.06397
G01 X104.0108Y40.06364
G01 X104.0108Y39.96734
G01 X104.0108Y30.75529
G01 X106.92446Y27.84163
G01 X107.556Y27.8444
G01 X107.63441Y27.84055
G01 X107.71207Y27.82903
G01 X107.78823Y27.80995
G01 X107.86215Y27.7835
G01 X107.93312Y27.74994
G01 X108.00046Y27.70958
G01 X108.06351Y27.66281
G01 X108.12169Y27.61009
G01 X108.17441Y27.55191
G01 X108.22118Y27.48886
G01 X108.26154Y27.42152
G01 X108.2951Y27.35055
G01 X108.32155Y27.27663
G01 X108.34063Y27.20047
G01 X108.35215Y27.12281
G01 X108.356Y27.0444
G01 X108.35215Y26.96599
G01 X108.34063Y26.88833
G01 X108.32155Y26.81217
G01 X108.2951Y26.73825
G01 X108.28496Y26.7168
G01 X120.23271Y26.7168
G01 X121.36997Y27.85405
G01 X121.35737Y27.90433
G01 X121.34585Y27.98199
G01 X121.342Y28.0604
G01 X121.34585Y28.13881
G01 X121.35737Y28.21647
G01 X121.37645Y28.29263
G01 X121.4029Y28.36655
G01 X121.43646Y28.43752
G01 X121.47682Y28.50486
G01 X121.52359Y28.56791
G01 X121.57631Y28.62609
G01 X121.63449Y28.67881
G01 X121.69754Y28.72558
G01 X121.76488Y28.76594
G01 X121.83585Y28.7995
G01 X121.90977Y28.82595
G01 X121.98593Y28.84503
G01 X122.06359Y28.85655
G01 X122.142Y28.8604
G01 X122.22041Y28.85655
G01 X122.29807Y28.84503
G01 X122.37423Y28.82595
G01 X122.44815Y28.7995
G01 X122.51912Y28.76594
G01 X122.58646Y28.72558
G01 X122.64951Y28.67881
G01 X122.70769Y28.62609
G01 X122.76041Y28.56791
G01 X122.80718Y28.50486
G01 X122.84754Y28.43752
G01 X122.8811Y28.36655
G01 X122.90755Y28.29263
G01 X122.92663Y28.21647
G01 X122.93815Y28.13881
G01 X122.942Y28.0604
G01 X122.93815Y27.98199
G01 X122.92663Y27.90433
G01 X122.90755Y27.82817
G01 X122.8811Y27.75425
G01 X122.84754Y27.68328
G01 X122.80718Y27.61594
G01 X122.76041Y27.55289
G01 X122.70769Y27.49471
G01 X122.64951Y27.44199
G01 X122.58646Y27.39522
G01 X122.51912Y27.35486
G01 X122.44815Y27.3213
G01 X122.37423Y27.29485
G01 X122.29807Y27.27577
G01 X122.22041Y27.26425
G01 X122.142Y27.2604
G01 X122.06359Y27.26425
G01 X121.98593Y27.27577
G01 X121.93565Y27.28837
G01 X120.68124Y26.03396
G01 X120.65216Y26.00759
G01 X120.64421Y26.0017
G01 X120.62063Y25.98421
G01 X120.58696Y25.96403
G01 X120.57023Y25.95612
G01 X120.55147Y25.94725
G01 X120.51451Y25.93402
G01 X120.47644Y25.92448
G01 X120.43761Y25.91873
G01 X120.3984Y25.9168
G01 X108.84929Y25.9168
G01 X113.33164Y21.43444
G01 X113.358Y21.40536
G01 X113.38139Y21.37383
G01 X113.40157Y21.34016
G01 X113.41835Y21.30467
G01 X113.43158Y21.26771
G01 X113.44111Y21.22964
G01 X113.44687Y21.19081
G01 X113.4488Y21.1516
G01 X113.4488Y16.61946
G01 X113.44881Y16.61946
G01 X113.50556Y16.57737
G01 X113.55792Y16.52992
G01 X113.60537Y16.47756
G01 X113.64746Y16.42081
G01 X113.68378Y16.36021
G01 X113.71399Y16.29633
G01 X113.7378Y16.2298
G01 X113.75497Y16.16127
G01 X113.76533Y16.09137
G01 X113.7688Y16.0208
G01 X113.76533Y15.95023
G01 X113.75497Y15.88033
G01 X113.7378Y15.8118
G01 X113.71399Y15.74527
G01 X113.68378Y15.68139
G01 X113.64746Y15.62079
G01 X113.60537Y15.56404
G01 X113.55792Y15.51168
G01 X113.50556Y15.46423
G01 X113.44881Y15.42214
G01 X113.38821Y15.38582
G01 X113.32433Y15.35561
G01 X113.2578Y15.3318
G01 X113.18927Y15.31463
G01 X113.11937Y15.30427
G01 X113.0488Y15.3008
G01 X112.97823Y15.30427
G01 X112.90833Y15.31463
G01 X112.90832Y15.31464
G01 X111.4168Y13.82311
G01 X111.4168Y12.30036
G01 X111.41749Y12.30003
G01 X111.48903Y12.25715
G01 X111.55603Y12.20746
G01 X111.61784Y12.15144
G01 X111.67386Y12.08963
G01 X111.72355Y12.02263
G01 X111.76643Y11.95109
G01 X111.8021Y11.87568
G01 X111.8302Y11.79714
G01 X111.85047Y11.71623
G01 X111.86271Y11.63371
G01 X111.8668Y11.5504
G01 X111.86271Y11.46709
G01 X111.85047Y11.38457
G01 X111.8302Y11.30366
G01 X111.8021Y11.22512
G01 X111.76643Y11.14971
G01 X111.72355Y11.07817
G01 X111.67386Y11.01117
G01 X111.61784Y10.94936
G01 X111.55603Y10.89334
G01 X111.48903Y10.84365
G01 X111.41749Y10.80077
G01 X111.34208Y10.7651
G01 X111.26354Y10.737
G01 X111.18263Y10.71673
G01 X111.10011Y10.70449
G01 X111.0168Y10.7004
G01 X110.93349Y10.70449
G01 X110.85097Y10.71673
G01 X110.77006Y10.737
G01 X110.69152Y10.7651
G01 X110.61611Y10.80077
G01 X110.54457Y10.84365
G01 X110.47757Y10.89334
G01 X110.41576Y10.94936
G01 X110.35974Y11.01117
G01 X110.31005Y11.07817
G01 X110.26717Y11.14971
G01 X110.2315Y11.22512
G01 X110.2034Y11.30366
G01 X110.18313Y11.38457
G01 X110.17089Y11.46709
G01 X110.1668Y11.5504
G01 X110.17089Y11.63371
G01 X110.18313Y11.71623
G01 X110.2034Y11.79714
G01 X110.2315Y11.87568
G01 X110.26717Y11.95109
G01 X110.31005Y12.02263
G01 X110.35974Y12.08963
G01 X110.41576Y12.15144
G01 X110.47757Y12.20746
G01 X110.54457Y12.25715
G01 X110.61611Y12.30003
G01 X110.6168Y12.30036
G01 X110.6168Y13.9888
G01 X110.61873Y14.02801
G01 X110.62449Y14.06684
G01 X110.63402Y14.10491
G01 X110.64725Y14.14187
G01 X110.64912Y14.14583
G01 X110.66403Y14.17736
G01 X110.6827Y14.20851
G01 X110.68421Y14.21103
G01 X110.7076Y14.24256
G01 X110.73396Y14.27164
G01 X112.34264Y15.88032
G01 X112.34263Y15.88033
G01 X112.33227Y15.95023
G01 X112.3288Y16.0208
G01 X112.33227Y16.09137
G01 X112.34263Y16.16127
G01 X112.3598Y16.2298
G01 X112.38361Y16.29633
G01 X112.41382Y16.36021
G01 X112.45014Y16.42081
G01 X112.49223Y16.47756
G01 X112.53968Y16.52992
G01 X112.59204Y16.57737
G01 X112.64879Y16.61946
G01 X112.6488Y16.61946
G01 X112.6488Y20.98591
G01 X107.60076Y26.03396
G01 X107.38754Y26.24717
G01 X106.756Y26.2444
G01 X106.67759Y26.24825
G01 X106.59993Y26.25977
G01 X106.52377Y26.27885
G01 X106.44985Y26.3053
G01 X106.37888Y26.33886
G01 X106.31154Y26.37922
G01 X106.24849Y26.42599
G01 X106.19031Y26.47871
G01 X106.13759Y26.53689
G01 X106.09082Y26.59994
G01 X106.05046Y26.66728
G01 X106.0169Y26.73825
G01 X105.99045Y26.81217
G01 X105.97137Y26.88833
G01 X105.95985Y26.96599
G01 X105.956Y27.0444
G01 X105.95985Y27.12281
G01 X105.97137Y27.20047
G01 X105.99045Y27.27663
G01 X106.0169Y27.35055
G01 X106.05046Y27.42152
G01 X106.09082Y27.48886
G01 X106.11426Y27.52045
G01 X104.0108Y29.62391
G01 X104.0108Y18.5208
G01 X104.00887Y18.48159
G01 X104.00311Y18.44276
G01 X103.99358Y18.40469
G01 X103.98035Y18.36773
G01 X103.96357Y18.33224
G01 X103.94339Y18.29857
G01 X103.92Y18.26704
G01 X103.89364Y18.23796
G01 X100.85724Y15.20156
G01 X100.82816Y15.1752
G01 X100.79663Y15.15181
G01 X100.76296Y15.13163
G01 X100.72747Y15.11485
G01 X100.69051Y15.10162
G01 X100.65244Y15.09209
G01 X100.61361Y15.08633
G01 X100.5744Y15.0844
G01 X97.33649Y15.0844
G01 X94.04994Y11.79786
G01 X94.0502Y11.79714
G01 X94.07047Y11.71623
G01 X94.08271Y11.63371
G01 X94.0868Y11.5504
G01 X94.08271Y11.46709
G01 X94.07047Y11.38457
G01 X94.0502Y11.30366
G01 X94.0221Y11.22512
G01 X93.98643Y11.14971
G01 X93.94355Y11.07817
G01 X93.89386Y11.01117
G01 X93.83784Y10.94936
G01 X93.77603Y10.89334
G01 X93.70903Y10.84365
G01 X93.63749Y10.80077
G01 X93.56208Y10.7651
G01 X93.48354Y10.737
G01 X93.40263Y10.71673
G01 X93.32011Y10.70449
G01 X93.2368Y10.7004
G01 X93.15349Y10.70449
G01 X93.07097Y10.71673
G01 X92.99006Y10.737
G01 X92.91152Y10.7651
G01 X92.83611Y10.80077
G01 X92.76457Y10.84365
G01 X92.69757Y10.89334
G01 X92.63576Y10.94936
G01 X92.57974Y11.01117
G01 X92.53005Y11.07817
G01 X92.48717Y11.14971
G01 X92.4515Y11.22512
G01 X92.4234Y11.30366
G01 X92.40313Y11.38457
G01 X92.39089Y11.46709
G01 X92.3868Y11.5504
G01 X92.39089Y11.63371
G01 X92.40313Y11.71623
G01 X92.4234Y11.79714
G01 X92.4515Y11.87568
G01 X92.48717Y11.95109
G01 X92.53005Y12.02263
G01 X92.57974Y12.08963
G01 X92.63576Y12.15144
G01 X92.69757Y12.20746
G01 X92.76457Y12.25715
G01 X92.83611Y12.30003
G01 X92.91152Y12.3357
G01 X92.99006Y12.3638
G01 X93.07097Y12.38407
G01 X93.15349Y12.39631
G01 X93.2368Y12.4004
G01 X93.32011Y12.39631
G01 X93.40263Y12.38407
G01 X93.48354Y12.3638
G01 X93.48426Y12.36354
G01 X96.88796Y15.76724
G01 X96.91704Y15.7936
G01 X96.94857Y15.81699
G01 X96.98224Y15.83717
G01 X97.01773Y15.85395
G01 X97.05469Y15.86718
G01 X97.09276Y15.87671
G01 X97.13159Y15.88247
G01 X97.1708Y15.8844
G01 X100.40871Y15.8844
G01 X103.2108Y18.68649
G01 X103.2108Y30.5896
G01 X103.2108Y39.01993
G01 X103.19562Y39.01083
G01 X103.16013Y38.99405
G01 X103.12317Y38.98082
G01 X103.08509Y38.97129
G01 X103.04626Y38.96553
G01 X103.00706Y38.9636
G01 X99.5612Y38.9636
G01 X99.52199Y38.96553
G01 X99.48316Y38.97129
G01 X99.44509Y38.98082
G01 X99.40813Y38.99405
G01 X99.37264Y39.01083
G01 X99.33897Y39.03101
G01 X99.30744Y39.0544
G01 X99.27836Y39.08076
G01 X95.15391Y43.2052
G01 X91.58769Y43.2052
G01 X85.27603Y36.89355
G01 X85.28863Y36.84327
G01 X85.30015Y36.76561
G01 X85.304Y36.6872
G01 X85.30015Y36.60879
G01 X85.28863Y36.53113
G01 X85.27603Y36.48085
G01 X86.18684Y35.57004
G01 X86.2132Y35.54096
G01 X86.23659Y35.50943
G01 X86.25677Y35.47576
G01 X86.27355Y35.44027
G01 X86.28678Y35.40331
G01 X86.29631Y35.36524
G01 X86.30207Y35.32641
G01 X86.304Y35.2872
G01 X86.304Y29.5928
G01 X86.30207Y29.55359
G01 X86.29631Y29.51476
G01 X86.28678Y29.47669
G01 X86.27355Y29.43973
G01 X86.25677Y29.40424
G01 X86.23659Y29.37057
G01 X86.2132Y29.33904
G01 X86.18684Y29.30996
G01 X85.27603Y28.39915
G01 X85.28863Y28.34887
G01 X85.30015Y28.27121
G01 X85.304Y28.1928
G01 X85.30015Y28.11439
G01 X85.28863Y28.03673
G01 X85.26955Y27.96057
G01 X85.2431Y27.88665
G01 X85.20954Y27.81568
G01 X85.16918Y27.74834
G01 X85.12241Y27.68529
G01 X85.06969Y27.62711
G01 X85.01151Y27.57439
G01 X84.94846Y27.52762
G01 X84.904Y27.50098
G01 X84.904Y25.41669
G01 X86.97525Y23.34543
G01 X87.02553Y23.35803
G01 X87.10319Y23.36955
G01 X87.1816Y23.3734
G01 X87.26001Y23.36955
G01 X87.33767Y23.35803
G01 X87.41383Y23.33895
G01 X87.48775Y23.3125
G01 X87.55872Y23.27894
G01 X87.62606Y23.23858
G01 X87.68911Y23.19181
G01 X87.74729Y23.13909
G01 X87.80001Y23.08091
G01 X87.84678Y23.01786
G01 X87.88714Y22.95052
G01 X87.9207Y22.87955
G01 X87.94715Y22.80563
G01 X87.96623Y22.72947
G01 X87.97775Y22.65181
G01 X87.9816Y22.5734
G01 X87.97775Y22.49499
G01 X87.96623Y22.41733
G01 X87.94715Y22.34117
G01 X87.9207Y22.26725
G01 X87.88714Y22.19628
G01 X87.84678Y22.12894
G01 X87.80001Y22.06589
G01 X87.74729Y22.00771
G01 X87.68911Y21.95499
G01 X87.62606Y21.90822
G01 X87.55872Y21.86786
G01 X87.48775Y21.8343
G01 X87.41383Y21.80785
G01 X87.33767Y21.78877
G01 X87.26001Y21.77725
G01 X87.1816Y21.7734
G01 X87.10319Y21.77725
G01 X87.02553Y21.78877
G01 X86.97525Y21.80137
G01 X86.1916Y21.01771
G01 X86.1916Y18.45009
G01 X86.98525Y17.65643
G01 X87.03553Y17.66903
G01 X87.11319Y17.68055
G01 X87.1916Y17.6844
G01 X87.27001Y17.68055
G01 X87.34767Y17.66903
G01 X87.42383Y17.64995
G01 X87.49775Y17.6235
G01 X87.56872Y17.58994
G01 X87.63606Y17.54958
G01 X87.69911Y17.50281
G01 X87.75729Y17.45009
G01 X87.81001Y17.39191
G01 X87.85678Y17.32886
G01 X87.89714Y17.26152
G01 X87.9307Y17.19055
G01 X87.95715Y17.11663
G01 X87.97623Y17.04047
G01 X87.98775Y16.96281
G01 X87.9916Y16.8844
G01 X87.98775Y16.80599
G01 X87.97623Y16.72833
G01 X87.95715Y16.65217
G01 X87.9307Y16.57825
G01 X87.89714Y16.50728
G01 X87.85678Y16.43994
G01 X87.81001Y16.37689
G01 X87.75729Y16.31871
G01 X87.69911Y16.26599
G01 X87.63606Y16.21922
G01 X87.5916Y16.19258
G01 X87.5916Y9.95446
G01 X94.18086Y3.3652
G01 X112.42591Y3.3652
G01 X120.3268Y11.26609
G01 X120.3268Y12.4004
G01 X122.0268Y12.4004
G01 X122.0268Y10.7004
G01 X120.89249Y10.7004
G01 X112.87444Y2.68236
G01 X112.84536Y2.656
G01 X112.81383Y2.63261
G01 X112.78016Y2.61243
G01 X112.74467Y2.59565
G01 X112.70771Y2.58242
G01 X112.66964Y2.57289
G01 X112.63081Y2.56713
G01 X112.5916Y2.5652
G01 X94.01517Y2.5652
G01 X93.97597Y2.56713
G01 X93.93714Y2.57289
G01 X93.89906Y2.58242
G01 X93.8621Y2.59565
G01 X93.82661Y2.61243
G01 X93.79294Y2.63261
G01 X93.76141Y2.656
G01 X93.73233Y2.68236
G01 X86.90876Y9.50593
G01 X86.8824Y9.53501
G01 X86.85901Y9.56654
G01 X86.83883Y9.60021
G01 X86.82205Y9.6357
G01 X86.80882Y9.67266
G01 X86.79929Y9.71074
G01 X86.79353Y9.74957
G01 X86.7916Y9.78877
G01 X86.7916Y16.19258
G01 X86.74714Y16.21922
G01 X86.68409Y16.26599
G01 X86.62591Y16.31871
G01 X86.57319Y16.37689
G01 X86.52642Y16.43994
G01 X86.48606Y16.50728
G01 X86.4525Y16.57825
G01 X86.42605Y16.65217
G01 X86.40697Y16.72833
G01 X86.39545Y16.80599
G01 X86.3916Y16.8844
G01 X86.39545Y16.96281
G01 X86.40697Y17.04047
G01 X86.41957Y17.09075
G01 X85.50876Y18.00156
G01 X85.4824Y18.03064
G01 X85.45901Y18.06217
G01 X85.45599Y18.06722
G01 X85.43883Y18.09584
G01 X85.42403Y18.12713
G01 X85.42205Y18.13133
G01 X85.40882Y18.16829
G01 X85.39929Y18.20636
G01 X85.39353Y18.24519
G01 X85.3916Y18.2844
G01 X85.3916Y21.1834
G01 X85.39353Y21.22261
G01 X85.39929Y21.26144
G01 X85.40882Y21.29951
G01 X85.42205Y21.33647
G01 X85.43883Y21.37196
G01 X85.45901Y21.40563
G01 X85.4824Y21.43716
G01 X85.50876Y21.46624
G01 X86.40957Y22.36705
G01 X86.39697Y22.41733
G01 X86.38545Y22.49499
G01 X86.3816Y22.5734
G01 X86.38545Y22.65181
G01 X86.39697Y22.72947
G01 X86.40957Y22.77975
G01 X84.22116Y24.96816
G01 X84.1948Y24.99724
G01 X84.17141Y25.02877
G01 X84.15123Y25.06244
G01 X84.13445Y25.09793
G01 X84.12122Y25.13489
G01 X84.11169Y25.17296
G01 X84.10593Y25.21179
G01 X84.104Y25.251
G01 X84.104Y27.50098
G01 X84.05954Y27.52762
G01 X83.99649Y27.57439
G01 X83.93831Y27.62711
G01 X83.88559Y27.68529
G01 X83.83882Y27.74834
G01 X83.79846Y27.81568
G01 X83.7649Y27.88665
G01 X83.7649Y27.88665
M5
G01 X81.3716Y18.2844
M3
G01 X81.36967Y18.24519
G01 X81.36391Y18.20636
G01 X81.35438Y18.16829
G01 X81.34115Y18.13133
G01 X81.33917Y18.12713
G01 X81.32437Y18.09584
G01 X81.30721Y18.06722
G01 X81.30419Y18.06217
G01 X81.2808Y18.03064
G01 X81.25444Y18.00156
G01 X80.34363Y17.09075
G01 X80.35623Y17.04047
G01 X80.36775Y16.96281
G01 X80.3716Y16.8844
G01 X80.36775Y16.80599
G01 X80.35623Y16.72833
G01 X80.33715Y16.65217
G01 X80.3107Y16.57825
G01 X80.27714Y16.50728
G01 X80.23678Y16.43994
G01 X80.19001Y16.37689
G01 X80.13729Y16.31871
G01 X80.07911Y16.26599
G01 X80.01606Y16.21922
G01 X79.94872Y16.17886
G01 X79.87775Y16.1453
G01 X79.80383Y16.11885
G01 X79.72767Y16.09977
G01 X79.65001Y16.08825
G01 X79.5716Y16.0844
G01 X79.49319Y16.08825
G01 X79.41553Y16.09977
G01 X79.33937Y16.11885
G01 X79.26545Y16.1453
G01 X79.19448Y16.17886
G01 X79.12714Y16.21922
G01 X79.06409Y16.26599
G01 X79.00591Y16.31871
G01 X78.95319Y16.37689
G01 X78.90642Y16.43994
G01 X78.86606Y16.50728
G01 X78.8325Y16.57825
G01 X78.80605Y16.65217
G01 X78.78697Y16.72833
G01 X78.77545Y16.80599
G01 X78.7716Y16.8844
G01 X78.77545Y16.96281
G01 X78.78697Y17.04047
G01 X78.80605Y17.11663
G01 X78.8325Y17.19055
G01 X78.86606Y17.26152
G01 X78.90642Y17.32886
G01 X78.95319Y17.39191
G01 X79.00591Y17.45009
G01 X79.06409Y17.50281
G01 X79.12714Y17.54958
G01 X79.19448Y17.58994
G01 X79.26545Y17.6235
G01 X79.33937Y17.64995
G01 X79.41553Y17.66903
G01 X79.49319Y17.68055
G01 X79.5716Y17.6844
G01 X79.65001Y17.68055
G01 X79.72767Y17.66903
G01 X79.77795Y17.65643
G01 X80.5716Y18.45009
G01 X80.5716Y20.99771
G01 X79.76795Y21.80137
G01 X79.71767Y21.78877
G01 X79.64001Y21.77725
G01 X79.5616Y21.7734
G01 X79.48319Y21.77725
G01 X79.40553Y21.78877
G01 X79.35525Y21.80137
G01 X78.27024Y20.71636
G01 X78.24116Y20.69
G01 X78.20963Y20.66661
G01 X78.17596Y20.64643
G01 X78.14047Y20.62965
G01 X78.10351Y20.61642
G01 X78.06544Y20.60689
G01 X78.02661Y20.60113
G01 X77.9874Y20.5992
G01 X73.8248Y20.5992
G01 X73.8248Y20.0428
G01 X73.82287Y20.00359
G01 X73.81711Y19.96476
G01 X73.80758Y19.92669
G01 X73.79435Y19.88973
G01 X73.77757Y19.85424
G01 X73.75739Y19.82057
G01 X73.734Y19.78904
G01 X73.70764Y19.75996
G01 X73.42974Y19.48206
G01 X73.43219Y19.4752
G01 X73.44471Y19.42522
G01 X73.45227Y19.37426
G01 X73.4548Y19.3228
G01 X73.45227Y19.27134
G01 X73.44471Y19.22038
G01 X73.43219Y19.1704
G01 X73.41484Y19.12189
G01 X73.39281Y19.07532
G01 X73.36632Y19.03113
G01 X73.33563Y18.98974
G01 X73.30103Y18.95157
G01 X73.26286Y18.91697
G01 X73.22147Y18.88628
G01 X73.17728Y18.85979
G01 X73.13071Y18.83776
G01 X73.0822Y18.82041
G01 X73.03222Y18.80789
G01 X72.98126Y18.80033
G01 X72.4798Y18.7978
G01 X72.42834Y18.80033
G01 X72.37738Y18.80789
G01 X72.3274Y18.82041
G01 X72.27889Y18.83776
G01 X72.23232Y18.85979
G01 X72.18813Y18.88628
G01 X72.14674Y18.91697
G01 X72.14031Y18.9228
G01 X56.70309Y18.9228
G01 X55.35702Y17.57673
G01 X55.3681Y17.5533
G01 X55.40943Y17.4378
G01 X55.43923Y17.31881
G01 X55.45723Y17.19747
G01 X55.46325Y17.07495
G01 X55.45723Y16.95243
G01 X55.43923Y16.83109
G01 X55.40943Y16.71209
G01 X55.3681Y16.59659
G01 X55.31565Y16.4857
G01 X55.25259Y16.38049
G01 X55.17952Y16.28196
G01 X55.09714Y16.19106
G01 X55.00624Y16.10868
G01 X54.90771Y16.03561
G01 X54.8025Y15.97255
G01 X54.69161Y15.9201
G01 X54.57611Y15.87877
G01 X54.45711Y15.84897
G01 X54.33577Y15.83097
G01 X54.21325Y15.82495
G01 X54.09073Y15.83097
G01 X53.96939Y15.84897
G01 X53.8504Y15.87877
G01 X53.7349Y15.9201
G01 X53.62401Y15.97255
G01 X53.51879Y16.03561
G01 X53.42026Y16.10868
G01 X53.32937Y16.19106
G01 X52.61603Y16.9044
G01 X39.04297Y16.9044
G01 X32.04308Y9.90452
G01 X31.95219Y9.82214
G01 X31.85366Y9.74906
G01 X31.74845Y9.686
G01 X31.63755Y9.63355
G01 X31.52206Y9.59222
G01 X31.40306Y9.56242
G01 X31.28172Y9.54442
G01 X31.1592Y9.5384
G01 X19.4244Y9.5384
G01 X19.30188Y9.54442
G01 X19.18054Y9.56242
G01 X19.06154Y9.59222
G01 X18.94605Y9.63355
G01 X18.83515Y9.686
G01 X18.72994Y9.74906
G01 X18.63141Y9.82214
G01 X18.54052Y9.90452
G01 X15.39743Y13.0476
G01 X14.1652Y13.0476
G01 X14.1652Y16.0476
G01 X17.1652Y16.0476
G01 X17.1652Y14.81537
G01 X19.94217Y12.0384
G01 X30.64143Y12.0384
G01 X37.64132Y19.03828
G01 X37.73221Y19.12066
G01 X37.83074Y19.19374
G01 X37.93595Y19.2568
G01 X38.04685Y19.30925
G01 X38.16234Y19.35058
G01 X38.28134Y19.38038
G01 X38.40268Y19.39838
G01 X38.5252Y19.4044
G01 X53.1338Y19.4044
G01 X53.1338Y19.4044
G01 X53.25632Y19.39838
G01 X53.29233Y19.39304
G01 X53.37766Y19.38038
G01 X53.49666Y19.35058
G01 X53.54253Y19.33416
G01 X53.61215Y19.30925
G01 X53.71666Y19.25982
G01 X53.72305Y19.2568
G01 X53.72305Y19.2568
G01 X53.82826Y19.19374
G01 X53.87588Y19.15842
G01 X53.92679Y19.12066
G01 X54.01768Y19.03828
G01 X54.01768Y19.03828
G01 X54.01768Y19.03828
G01 X54.85244Y18.20353
G01 X56.25456Y19.60564
G01 X56.28364Y19.632
G01 X56.31517Y19.65539
G01 X56.34884Y19.67557
G01 X56.38433Y19.69235
G01 X56.42129Y19.70558
G01 X56.45936Y19.71511
G01 X56.49819Y19.72087
G01 X56.5374Y19.7228
G01 X72.14031Y19.7228
G01 X72.14674Y19.72863
G01 X72.18813Y19.75932
G01 X72.23232Y19.78581
G01 X72.27889Y19.80784
G01 X72.3274Y19.82519
G01 X72.37738Y19.83771
G01 X72.42834Y19.84527
G01 X72.66277Y19.84645
G01 X73.0248Y20.20849
G01 X73.0248Y20.9992
G01 X73.0248Y21.77489
G01 X72.99889Y21.78416
G01 X72.95232Y21.80619
G01 X72.90813Y21.83268
G01 X72.86674Y21.86337
G01 X72.82857Y21.89797
G01 X72.79397Y21.93614
G01 X72.76328Y21.97753
G01 X72.73679Y22.02172
G01 X72.71476Y22.06829
G01 X72.69741Y22.1168
G01 X72.68489Y22.16678
G01 X72.67733Y22.21774
G01 X72.6748Y22.2692
G01 X72.67733Y22.32066
G01 X72.68489Y22.37162
G01 X72.69741Y22.4216
G01 X72.71476Y22.47011
G01 X72.73679Y22.51668
G01 X72.76328Y22.56087
G01 X72.79397Y22.60226
G01 X72.82857Y22.64043
G01 X72.86674Y22.67503
G01 X72.90813Y22.70572
G01 X72.95232Y22.73221
G01 X72.99889Y22.75424
G01 X73.0474Y22.77159
G01 X73.09738Y22.78411
G01 X73.14834Y22.79167
G01 X73.6498Y22.7942
G01 X73.70126Y22.79167
G01 X73.75222Y22.78411
G01 X73.8022Y22.77159
G01 X73.85071Y22.75424
G01 X73.89728Y22.73221
G01 X73.94147Y22.70572
G01 X73.98286Y22.67503
G01 X74.02103Y22.64043
G01 X74.05563Y22.60226
G01 X74.08632Y22.56087
G01 X74.11281Y22.51668
G01 X74.13484Y22.47011
G01 X74.15219Y22.4216
G01 X74.16471Y22.37162
G01 X74.17227Y22.32066
G01 X74.1748Y22.2692
G01 X74.17227Y22.21774
G01 X74.16471Y22.16678
G01 X74.15219Y22.1168
G01 X74.13484Y22.06829
G01 X74.11281Y22.02172
G01 X74.08632Y21.97753
G01 X74.05563Y21.93614
G01 X74.02103Y21.89797
G01 X73.98286Y21.86337
G01 X73.94147Y21.83268
G01 X73.89728Y21.80619
G01 X73.85071Y21.78416
G01 X73.8248Y21.77489
G01 X73.8248Y21.3992
G01 X77.82171Y21.3992
G01 X78.78957Y22.36705
G01 X78.77697Y22.41733
G01 X78.76545Y22.49499
G01 X78.7616Y22.5734
G01 X78.76545Y22.65181
G01 X78.77697Y22.72947
G01 X78.79605Y22.80563
G01 X78.8225Y22.87955
G01 X78.85606Y22.95052
G01 X78.89642Y23.01786
G01 X78.94319Y23.08091
G01 X78.99591Y23.13909
G01 X79.05409Y23.19181
G01 X79.11714Y23.23858
G01 X79.18448Y23.27894
G01 X79.25545Y23.3125
G01 X79.32937Y23.33895
G01 X79.40553Y23.35803
G01 X79.48319Y23.36955
G01 X79.5616Y23.3734
G01 X79.64001Y23.36955
G01 X79.71767Y23.35803
G01 X79.79383Y23.33895
G01 X79.86775Y23.3125
G01 X79.93872Y23.27894
G01 X80.00606Y23.23858
G01 X80.06911Y23.19181
G01 X80.12729Y23.13909
G01 X80.18001Y23.08091
G01 X80.22678Y23.01786
G01 X80.26714Y22.95052
G01 X80.3007Y22.87955
G01 X80.32715Y22.80563
G01 X80.34623Y22.72947
G01 X80.35775Y22.65181
G01 X80.3616Y22.5734
G01 X80.35775Y22.49499
G01 X80.34623Y22.41733
G01 X80.33363Y22.36705
G01 X81.25444Y21.44624
G01 X81.2808Y21.41716
G01 X81.30419Y21.38563
G01 X81.30682Y21.38124
G01 X81.32437Y21.35196
G01 X81.33938Y21.32022
G01 X81.34115Y21.31647
G01 X81.35438Y21.27951
G01 X81.36391Y21.24144
G01 X81.36967Y21.20261
G01 X81.3716Y21.1634
G01 X81.3716Y21.1634
G01 X81.3716Y18.2844
G01 X81.3716Y18.2844
G01 X81.3716Y18.2844
M5
G01 X93.46413Y30.05555
M3
G01 X93.50109Y30.06878
G01 X93.53916Y30.07831
G01 X93.57799Y30.08407
G01 X93.6172Y30.086
G01 X95.1284Y30.086
G01 X95.1284Y30.286
G01 X96.6284Y30.286
G01 X96.6284Y29.9844
G01 X98.44418Y29.9844
G01 X98.47082Y30.02886
G01 X98.51759Y30.09191
G01 X98.57031Y30.15009
G01 X98.62849Y30.20281
G01 X98.69154Y30.24958
G01 X98.75888Y30.28994
G01 X98.82985Y30.3235
G01 X98.90377Y30.34995
G01 X98.97993Y30.36903
G01 X99.05759Y30.38055
G01 X99.936Y30.3844
G01 X100.01441Y30.38055
G01 X100.09207Y30.36903
G01 X100.16823Y30.34995
G01 X100.24215Y30.3235
G01 X100.31312Y30.28994
G01 X100.38046Y30.24958
G01 X100.44351Y30.20281
G01 X100.50169Y30.15009
G01 X100.55441Y30.09191
G01 X100.60118Y30.02886
G01 X100.64154Y29.96152
G01 X100.6751Y29.89055
G01 X100.70155Y29.81663
G01 X100.72063Y29.74047
G01 X100.73215Y29.66281
G01 X100.736Y29.5844
G01 X100.73215Y29.50599
G01 X100.72063Y29.42833
G01 X100.70155Y29.35217
G01 X100.6751Y29.27825
G01 X100.64154Y29.20728
G01 X100.60118Y29.13994
G01 X100.55441Y29.07689
G01 X100.50169Y29.01871
G01 X100.44351Y28.96599
G01 X100.38046Y28.91922
G01 X100.31312Y28.87886
G01 X100.24215Y28.8453
G01 X100.16823Y28.81885
G01 X100.09207Y28.79977
G01 X100.01441Y28.78825
G01 X99.136Y28.7844
G01 X99.05759Y28.78825
G01 X98.97993Y28.79977
G01 X98.90377Y28.81885
G01 X98.82985Y28.8453
G01 X98.75888Y28.87886
G01 X98.69154Y28.91922
G01 X98.62849Y28.96599
G01 X98.57031Y29.01871
G01 X98.51759Y29.07689
G01 X98.47082Y29.13994
G01 X98.44418Y29.1844
G01 X96.6284Y29.1844
G01 X96.6284Y29.086
G01 X95.1284Y29.086
G01 X95.1284Y29.286
G01 X93.78289Y29.286
G01 X92.89603Y28.39915
G01 X92.90863Y28.34887
G01 X92.92015Y28.27121
G01 X92.924Y28.1928
G01 X92.92015Y28.11439
G01 X92.90863Y28.03673
G01 X92.88955Y27.96057
G01 X92.8631Y27.88665
G01 X92.82954Y27.81568
G01 X92.78918Y27.74834
G01 X92.74241Y27.68529
G01 X92.68969Y27.62711
G01 X92.63151Y27.57439
G01 X92.56846Y27.52762
G01 X92.50112Y27.48726
G01 X92.43015Y27.4537
G01 X92.35623Y27.42725
G01 X92.28007Y27.40817
G01 X92.20241Y27.39665
G01 X92.124Y27.3928
G01 X92.04559Y27.39665
G01 X91.96793Y27.40817
G01 X91.89177Y27.42725
G01 X91.81785Y27.4537
G01 X91.74688Y27.48726
G01 X91.67954Y27.52762
G01 X91.61649Y27.57439
G01 X91.55831Y27.62711
G01 X91.50559Y27.68529
G01 X91.45882Y27.74834
G01 X91.41846Y27.81568
G01 X91.3849Y27.88665
G01 X91.35845Y27.96057
G01 X91.33937Y28.03673
G01 X91.32785Y28.11439
G01 X91.324Y28.1928
G01 X91.32785Y28.27121
G01 X91.33937Y28.34887
G01 X91.35845Y28.42503
G01 X91.3849Y28.49895
G01 X91.41846Y28.56992
G01 X91.45882Y28.63726
G01 X91.50559Y28.70031
G01 X91.55831Y28.75849
G01 X91.61649Y28.81121
G01 X91.67954Y28.85798
G01 X91.74688Y28.89834
G01 X91.81785Y28.9319
G01 X91.89177Y28.95835
G01 X91.96793Y28.97743
G01 X92.04559Y28.98895
G01 X92.124Y28.9928
G01 X92.20241Y28.98895
G01 X92.28007Y28.97743
G01 X92.33035Y28.96483
G01 X93.33436Y29.96884
G01 X93.36344Y29.9952
G01 X93.39497Y30.01859
G01 X93.42864Y30.03877
G01 X93.46413Y30.05555
G01 X93.46413Y30.05555
M5
G01 X92.50112Y34.38474
M3
G01 X92.56846Y34.34438
G01 X92.63151Y34.29761
G01 X92.68969Y34.24489
G01 X92.74241Y34.18671
G01 X92.78918Y34.12366
G01 X92.82954Y34.05632
G01 X92.8631Y33.98535
G01 X92.88955Y33.91143
G01 X92.90863Y33.83527
G01 X92.92015Y33.75761
G01 X92.924Y33.6792
G01 X92.92015Y33.60079
G01 X92.90863Y33.52313
G01 X92.89603Y33.47285
G01 X93.78289Y32.586
G01 X94.97844Y32.586
G01 X94.97877Y32.58669
G01 X95.02165Y32.65823
G01 X95.07134Y32.72523
G01 X95.12736Y32.78704
G01 X95.18917Y32.84306
G01 X95.25617Y32.89275
G01 X95.32771Y32.93563
G01 X95.40312Y32.9713
G01 X95.48166Y32.9994
G01 X95.56257Y33.01967
G01 X95.64509Y33.03191
G01 X96.0284Y33.036
G01 X96.11171Y33.03191
G01 X96.19423Y33.01967
G01 X96.27514Y32.9994
G01 X96.35368Y32.9713
G01 X96.42909Y32.93563
G01 X96.50063Y32.89275
G01 X96.56763Y32.84306
G01 X96.62944Y32.78704
G01 X96.68546Y32.72523
G01 X96.73515Y32.65823
G01 X96.77803Y32.58669
G01 X96.8137Y32.51128
G01 X96.8418Y32.43274
G01 X96.86207Y32.35183
G01 X96.87431Y32.26931
G01 X96.8784Y32.186
G01 X96.87431Y32.10269
G01 X96.86207Y32.02017
G01 X96.8418Y31.93926
G01 X96.8137Y31.86072
G01 X96.77803Y31.78531
G01 X96.73515Y31.71377
G01 X96.68546Y31.64677
G01 X96.62944Y31.58496
G01 X96.56763Y31.52894
G01 X96.50063Y31.47925
G01 X96.42909Y31.43637
G01 X96.35368Y31.4007
G01 X96.27514Y31.3726
G01 X96.19423Y31.35233
G01 X96.11171Y31.34009
G01 X95.7284Y31.336
G01 X95.64509Y31.34009
G01 X95.56257Y31.35233
G01 X95.48166Y31.3726
G01 X95.40312Y31.4007
G01 X95.32771Y31.43637
G01 X95.25617Y31.47925
G01 X95.18917Y31.52894
G01 X95.12736Y31.58496
G01 X95.07134Y31.64677
G01 X95.02165Y31.71377
G01 X94.97877Y31.78531
G01 X94.97844Y31.786
G01 X93.6172Y31.786
G01 X93.57799Y31.78793
G01 X93.53916Y31.79369
G01 X93.50109Y31.80322
G01 X93.46413Y31.81645
G01 X93.42864Y31.83323
G01 X93.39497Y31.85341
G01 X93.36344Y31.8768
G01 X93.33436Y31.90316
G01 X92.33035Y32.90717
G01 X92.28007Y32.89457
G01 X92.20241Y32.88305
G01 X92.124Y32.8792
G01 X92.04559Y32.88305
G01 X91.96793Y32.89457
G01 X91.89177Y32.91365
G01 X91.81785Y32.9401
G01 X91.74688Y32.97366
G01 X91.67954Y33.01402
G01 X91.61649Y33.06079
G01 X91.55831Y33.11351
G01 X91.50559Y33.17169
G01 X91.45882Y33.23474
G01 X91.41846Y33.30208
G01 X91.3849Y33.37305
G01 X91.35845Y33.44697
G01 X91.33937Y33.52313
G01 X91.32785Y33.60079
G01 X91.324Y33.6792
G01 X91.32785Y33.75761
G01 X91.33937Y33.83527
G01 X91.35845Y33.91143
G01 X91.3849Y33.98535
G01 X91.41846Y34.05632
G01 X91.45882Y34.12366
G01 X91.50559Y34.18671
G01 X91.55831Y34.24489
G01 X91.61649Y34.29761
G01 X91.67954Y34.34438
G01 X91.74688Y34.38474
G01 X91.81785Y34.4183
G01 X91.89177Y34.44475
G01 X91.96793Y34.46383
G01 X92.04559Y34.47535
G01 X92.124Y34.4792
G01 X92.20241Y34.47535
G01 X92.28007Y34.46383
G01 X92.35623Y34.44475
G01 X92.43015Y34.4183
G01 X92.50112Y34.38474
G01 X92.50112Y34.38474
M5
G01 X88.99888Y20.22594
M3
G01 X89.06985Y20.2595
G01 X89.14377Y20.28595
G01 X89.21993Y20.30503
G01 X89.29759Y20.31655
G01 X89.376Y20.3204
G01 X89.45441Y20.31655
G01 X89.53207Y20.30503
G01 X89.60823Y20.28595
G01 X89.68215Y20.2595
G01 X89.75312Y20.22594
G01 X89.82046Y20.18558
G01 X89.88351Y20.13881
G01 X89.94169Y20.08609
G01 X89.99441Y20.02791
G01 X90.04118Y19.96486
G01 X90.08154Y19.89752
G01 X90.1151Y19.82655
G01 X90.14155Y19.75263
G01 X90.16063Y19.67647
G01 X90.17215Y19.59881
G01 X90.176Y19.5204
G01 X90.17215Y19.44199
G01 X90.16063Y19.36433
G01 X90.14155Y19.28817
G01 X90.1151Y19.21425
G01 X90.08154Y19.14328
G01 X90.04118Y19.07594
G01 X89.99441Y19.01289
G01 X89.94169Y18.95471
G01 X89.88351Y18.90199
G01 X89.82046Y18.85522
G01 X89.75312Y18.81486
G01 X89.68215Y18.7813
G01 X89.60823Y18.75485
G01 X89.53207Y18.73577
G01 X89.45441Y18.72425
G01 X89.376Y18.7204
G01 X89.29759Y18.72425
G01 X89.21993Y18.73577
G01 X89.14377Y18.75485
G01 X89.06985Y18.7813
G01 X88.99888Y18.81486
G01 X88.93154Y18.85522
G01 X88.86849Y18.90199
G01 X88.81031Y18.95471
G01 X88.75759Y19.01289
G01 X88.71082Y19.07594
G01 X88.68418Y19.1204
G01 X87.9916Y19.1204
G01 X87.9916Y18.6244
G01 X86.3916Y18.6244
G01 X86.3916Y20.2244
G01 X87.9916Y20.2244
G01 X87.9916Y19.9204
G01 X88.68418Y19.9204
G01 X88.71082Y19.96486
G01 X88.75759Y20.02791
G01 X88.81031Y20.08609
G01 X88.86849Y20.13881
G01 X88.93154Y20.18558
G01 X88.99888Y20.22594
G01 X88.99888Y20.22594
M5
G01 X80.01606Y18.75922
M3
G01 X79.94872Y18.71886
G01 X79.87775Y18.6853
G01 X79.80383Y18.65885
G01 X79.72767Y18.63977
G01 X79.65001Y18.62825
G01 X79.5716Y18.6244
G01 X79.49319Y18.62825
G01 X79.41553Y18.63977
G01 X79.33937Y18.65885
G01 X79.26545Y18.6853
G01 X79.19448Y18.71886
G01 X79.12714Y18.75922
G01 X79.06409Y18.80599
G01 X79.00591Y18.85871
G01 X78.95319Y18.91689
G01 X78.90642Y18.97994
G01 X78.86606Y19.04728
G01 X78.8325Y19.11825
G01 X78.82972Y19.126
G01 X77.67262Y19.126
G01 X77.64598Y19.08154
G01 X77.59921Y19.01849
G01 X77.54649Y18.96031
G01 X77.48831Y18.90759
G01 X77.42526Y18.86082
G01 X77.35792Y18.82046
G01 X77.28695Y18.7869
G01 X77.21303Y18.76045
G01 X77.13687Y18.74137
G01 X77.05921Y18.72985
G01 X76.9808Y18.726
G01 X76.90239Y18.72985
G01 X76.82473Y18.74137
G01 X76.77445Y18.75397
G01 X75.9076Y17.88711
G01 X75.9076Y13.79567
G01 X75.90567Y13.75647
G01 X75.89991Y13.71764
G01 X75.89038Y13.67956
G01 X75.87715Y13.6426
G01 X75.86037Y13.60711
G01 X75.84019Y13.57344
G01 X75.8168Y13.54191
G01 X75.79044Y13.51283
G01 X74.56117Y12.28356
G01 X74.53209Y12.2572
G01 X74.50056Y12.23381
G01 X74.46689Y12.21363
G01 X74.4314Y12.19685
G01 X74.39444Y12.18362
G01 X74.35636Y12.17409
G01 X74.31753Y12.16833
G01 X74.27833Y12.1664
G01 X73.98929Y12.1664
G01 X73.98286Y12.16057
G01 X73.94147Y12.12988
G01 X73.89728Y12.10339
G01 X73.85071Y12.08136
G01 X73.8022Y12.06401
G01 X73.75222Y12.05149
G01 X73.70126Y12.04393
G01 X73.1998Y12.0414
G01 X73.14834Y12.04393
G01 X73.09738Y12.05149
G01 X73.0474Y12.06401
G01 X72.99889Y12.08136
G01 X72.95232Y12.10339
G01 X72.90813Y12.12988
G01 X72.86674Y12.16057
G01 X72.82857Y12.19517
G01 X72.79397Y12.23334
G01 X72.76328Y12.27473
G01 X72.73679Y12.31892
G01 X72.71476Y12.36549
G01 X72.69741Y12.414
G01 X72.68489Y12.46398
G01 X72.67733Y12.51494
G01 X72.6748Y12.5664
G01 X72.67733Y12.61786
G01 X72.68489Y12.66882
G01 X72.69741Y12.7188
G01 X72.71476Y12.76731
G01 X72.73679Y12.81388
G01 X72.76328Y12.85807
G01 X72.79397Y12.89946
G01 X72.82857Y12.93763
G01 X72.86674Y12.97223
G01 X72.90813Y13.00292
G01 X72.95232Y13.02941
G01 X72.99889Y13.05144
G01 X73.0474Y13.06879
G01 X73.09738Y13.08131
G01 X73.14834Y13.08887
G01 X73.6498Y13.0914
G01 X73.70126Y13.08887
G01 X73.75222Y13.08131
G01 X73.8022Y13.06879
G01 X73.85071Y13.05144
G01 X73.89728Y13.02941
G01 X73.94147Y13.00292
G01 X73.98286Y12.97223
G01 X73.98929Y12.9664
G01 X74.11264Y12.9664
G01 X75.1076Y13.96136
G01 X75.1076Y17.6528
G01 X73.26929Y17.6528
G01 X73.26286Y17.64697
G01 X73.22147Y17.61628
G01 X73.17728Y17.58979
G01 X73.13071Y17.56776
G01 X73.0822Y17.55041
G01 X73.03222Y17.53789
G01 X72.98126Y17.53033
G01 X72.4798Y17.5278
G01 X72.42834Y17.53033
G01 X72.37738Y17.53789
G01 X72.3274Y17.55041
G01 X72.27889Y17.56776
G01 X72.23232Y17.58979
G01 X72.18813Y17.61628
G01 X72.14674Y17.64697
G01 X72.10857Y17.68157
G01 X72.07397Y17.71974
G01 X72.04328Y17.76113
G01 X72.01679Y17.80532
G01 X71.99476Y17.85189
G01 X71.97741Y17.9004
G01 X71.96489Y17.95038
G01 X71.95733Y18.00134
G01 X71.9548Y18.0528
G01 X71.95733Y18.10426
G01 X71.96489Y18.15522
G01 X71.97741Y18.2052
G01 X71.99476Y18.25371
G01 X72.01679Y18.30028
G01 X72.04328Y18.34447
G01 X72.07397Y18.38586
G01 X72.10857Y18.42403
G01 X72.14674Y18.45863
G01 X72.18813Y18.48932
G01 X72.23232Y18.51581
G01 X72.27889Y18.53784
G01 X72.3274Y18.55519
G01 X72.37738Y18.56771
G01 X72.42834Y18.57527
G01 X72.9298Y18.5778
G01 X72.98126Y18.57527
G01 X73.03222Y18.56771
G01 X73.0822Y18.55519
G01 X73.13071Y18.53784
G01 X73.17728Y18.51581
G01 X73.22147Y18.48932
G01 X73.26286Y18.45863
G01 X73.26929Y18.4528
G01 X75.34191Y18.4528
G01 X76.20877Y19.31965
G01 X76.19617Y19.36993
G01 X76.18465Y19.44759
G01 X76.1808Y19.526
G01 X76.18465Y19.60441
G01 X76.19617Y19.68207
G01 X76.21525Y19.75823
G01 X76.2417Y19.83215
G01 X76.27526Y19.90312
G01 X76.31562Y19.97046
G01 X76.36239Y20.03351
G01 X76.41511Y20.09169
G01 X76.47329Y20.14441
G01 X76.53634Y20.19118
G01 X76.60368Y20.23154
G01 X76.67465Y20.2651
G01 X76.74857Y20.29155
G01 X76.82473Y20.31063
G01 X76.90239Y20.32215
G01 X76.9808Y20.326
G01 X77.05921Y20.32215
G01 X77.13687Y20.31063
G01 X77.21303Y20.29155
G01 X77.28695Y20.2651
G01 X77.35792Y20.23154
G01 X77.42526Y20.19118
G01 X77.48831Y20.14441
G01 X77.54649Y20.09169
G01 X77.59921Y20.03351
G01 X77.64598Y19.97046
G01 X77.67262Y19.926
G01 X78.94881Y19.926
G01 X78.95319Y19.93191
G01 X79.00591Y19.99009
G01 X79.06409Y20.04281
G01 X79.12714Y20.08958
G01 X79.19448Y20.12994
G01 X79.26545Y20.1635
G01 X79.33937Y20.18995
G01 X79.41553Y20.20903
G01 X79.49319Y20.22055
G01 X79.5716Y20.2244
G01 X79.65001Y20.22055
G01 X79.72767Y20.20903
G01 X79.80383Y20.18995
G01 X79.87775Y20.1635
G01 X79.94872Y20.12994
G01 X80.01606Y20.08958
G01 X80.07911Y20.04281
G01 X80.13729Y19.99009
G01 X80.19001Y19.93191
G01 X80.23678Y19.86886
G01 X80.27714Y19.80152
G01 X80.3107Y19.73055
G01 X80.33715Y19.65663
G01 X80.35623Y19.58047
G01 X80.36775Y19.50281
G01 X80.3716Y19.4244
G01 X80.36775Y19.34599
G01 X80.35623Y19.26833
G01 X80.33715Y19.19217
G01 X80.3107Y19.11825
G01 X80.27714Y19.04728
G01 X80.23678Y18.97994
G01 X80.19001Y18.91689
G01 X80.13729Y18.85871
G01 X80.07911Y18.80599
G01 X80.01606Y18.75922
G01 X80.01606Y18.75922
M5
G01 X114.92361Y15.74527
M3
G01 X114.8998Y15.8118
G01 X114.88263Y15.88033
G01 X114.87227Y15.95023
G01 X114.8688Y16.0208
G01 X114.87227Y16.09137
G01 X114.88263Y16.16127
G01 X114.8998Y16.2298
G01 X114.92361Y16.29633
G01 X114.95382Y16.36021
G01 X114.99014Y16.42081
G01 X115.03223Y16.47756
G01 X115.07968Y16.52992
G01 X115.13204Y16.57737
G01 X115.18879Y16.61946
G01 X115.24939Y16.65578
G01 X115.31327Y16.68599
G01 X115.3798Y16.7098
G01 X115.44833Y16.72697
G01 X115.51823Y16.73733
G01 X115.5888Y16.7408
G01 X115.65937Y16.73733
G01 X115.72927Y16.72697
G01 X115.7978Y16.7098
G01 X115.86433Y16.68599
G01 X115.92821Y16.65578
G01 X115.98881Y16.61946
G01 X116.04556Y16.57737
G01 X116.09792Y16.52992
G01 X116.14537Y16.47756
G01 X116.18746Y16.42081
G01 X116.22378Y16.36021
G01 X116.25399Y16.29633
G01 X116.2778Y16.2298
G01 X116.29497Y16.16127
G01 X116.30533Y16.09137
G01 X116.3088Y16.0208
G01 X116.30533Y15.95023
G01 X116.29497Y15.88033
G01 X116.29496Y15.88032
G01 X116.37964Y15.79564
G01 X116.406Y15.76656
G01 X116.41078Y15.76012
G01 X116.42939Y15.73503
G01 X116.44957Y15.70136
G01 X116.46635Y15.66587
G01 X116.4778Y15.63387
G01 X116.47958Y15.62891
G01 X116.48911Y15.59084
G01 X116.49487Y15.55201
G01 X116.4968Y15.5128
G01 X116.4968Y15.5128
G01 X116.4968Y15.5128
G01 X116.4968Y12.30036
G01 X116.49749Y12.30003
G01 X116.56903Y12.25715
G01 X116.63603Y12.20746
G01 X116.69784Y12.15144
G01 X116.75386Y12.08963
G01 X116.80355Y12.02263
G01 X116.84643Y11.95109
G01 X116.8821Y11.87568
G01 X116.9102Y11.79714
G01 X116.93047Y11.71623
G01 X116.94271Y11.63371
G01 X116.9468Y11.5504
G01 X116.94271Y11.46709
G01 X116.93047Y11.38457
G01 X116.9102Y11.30366
G01 X116.8821Y11.22512
G01 X116.84643Y11.14971
G01 X116.80355Y11.07817
G01 X116.75386Y11.01117
G01 X116.69784Y10.94936
G01 X116.63603Y10.89334
G01 X116.56903Y10.84365
G01 X116.49749Y10.80077
G01 X116.42208Y10.7651
G01 X116.34354Y10.737
G01 X116.26263Y10.71673
G01 X116.18011Y10.70449
G01 X116.0968Y10.7004
G01 X116.01349Y10.70449
G01 X115.93097Y10.71673
G01 X115.85006Y10.737
G01 X115.77152Y10.7651
G01 X115.69611Y10.80077
G01 X115.62457Y10.84365
G01 X115.55757Y10.89334
G01 X115.49576Y10.94936
G01 X115.43974Y11.01117
G01 X115.39005Y11.07817
G01 X115.34717Y11.14971
G01 X115.3115Y11.22512
G01 X115.2834Y11.30366
G01 X115.26313Y11.38457
G01 X115.25089Y11.46709
G01 X115.2468Y11.5504
G01 X115.25089Y11.63371
G01 X115.26313Y11.71623
G01 X115.2834Y11.79714
G01 X115.3115Y11.87568
G01 X115.34717Y11.95109
G01 X115.39005Y12.02263
G01 X115.43974Y12.08963
G01 X115.49576Y12.15144
G01 X115.55757Y12.20746
G01 X115.62457Y12.25715
G01 X115.69611Y12.30003
G01 X115.6968Y12.30036
G01 X115.6968Y15.30982
G01 X115.65937Y15.30427
G01 X115.5888Y15.3008
G01 X115.51823Y15.30427
G01 X115.44833Y15.31463
G01 X115.3798Y15.3318
G01 X115.31327Y15.35561
G01 X115.24939Y15.38582
G01 X115.18879Y15.42214
G01 X115.13204Y15.46423
G01 X115.07968Y15.51168
G01 X115.03223Y15.56404
G01 X114.99014Y15.62079
G01 X114.95382Y15.68139
G01 X114.92361Y15.74527
G01 X114.92361Y15.74527
M5
G01 X100.64154Y32.50152
M3
G01 X100.6751Y32.43055
G01 X100.70155Y32.35663
G01 X100.72063Y32.28047
G01 X100.73215Y32.20281
G01 X100.736Y32.1244
G01 X100.73215Y32.04599
G01 X100.72063Y31.96833
G01 X100.70155Y31.89217
G01 X100.6751Y31.81825
G01 X100.64154Y31.74728
G01 X100.60118Y31.67994
G01 X100.55441Y31.61689
G01 X100.50169Y31.55871
G01 X100.44351Y31.50599
G01 X100.38046Y31.45922
G01 X100.31312Y31.41886
G01 X100.24215Y31.3853
G01 X100.16823Y31.35885
G01 X100.09207Y31.33977
G01 X100.01441Y31.32825
G01 X99.136Y31.3244
G01 X99.05759Y31.32825
G01 X98.97993Y31.33977
G01 X98.90377Y31.35885
G01 X98.82985Y31.3853
G01 X98.75888Y31.41886
G01 X98.69154Y31.45922
G01 X98.62849Y31.50599
G01 X98.57031Y31.55871
G01 X98.51759Y31.61689
G01 X98.47082Y31.67994
G01 X98.43046Y31.74728
G01 X98.3969Y31.81825
G01 X98.37045Y31.89217
G01 X98.35137Y31.96833
G01 X98.33985Y32.04599
G01 X98.336Y32.1244
G01 X98.33985Y32.20281
G01 X98.35137Y32.28047
G01 X98.37045Y32.35663
G01 X98.3969Y32.43055
G01 X98.43046Y32.50152
G01 X98.47082Y32.56886
G01 X98.49426Y32.60045
G01 X95.60036Y35.49436
G01 X95.574Y35.52344
G01 X95.55061Y35.55497
G01 X95.53043Y35.58864
G01 X95.51365Y35.62413
G01 X95.50042Y35.66109
G01 X95.49089Y35.69916
G01 X95.48513Y35.73799
G01 X95.4832Y35.7772
G01 X95.4832Y37.6004
G01 X95.1332Y37.6004
G01 X95.1332Y37.8004
G01 X93.80289Y37.8004
G01 X92.89603Y36.89355
G01 X92.90863Y36.84327
G01 X92.92015Y36.76561
G01 X92.924Y36.6872
G01 X92.92015Y36.60879
G01 X92.90863Y36.53113
G01 X92.88955Y36.45497
G01 X92.8631Y36.38105
G01 X92.82954Y36.31008
G01 X92.78918Y36.24274
G01 X92.74241Y36.17969
G01 X92.68969Y36.12151
G01 X92.63151Y36.06879
G01 X92.56846Y36.02202
G01 X92.50112Y35.98166
G01 X92.43015Y35.9481
G01 X92.35623Y35.92165
G01 X92.28007Y35.90257
G01 X92.20241Y35.89105
G01 X92.124Y35.8872
G01 X92.04559Y35.89105
G01 X91.96793Y35.90257
G01 X91.89177Y35.92165
G01 X91.81785Y35.9481
G01 X91.74688Y35.98166
G01 X91.67954Y36.02202
G01 X91.61649Y36.06879
G01 X91.55831Y36.12151
G01 X91.50559Y36.17969
G01 X91.45882Y36.24274
G01 X91.41846Y36.31008
G01 X91.3849Y36.38105
G01 X91.35845Y36.45497
G01 X91.33937Y36.53113
G01 X91.32785Y36.60879
G01 X91.324Y36.6872
G01 X91.32785Y36.76561
G01 X91.33937Y36.84327
G01 X91.35845Y36.91943
G01 X91.3849Y36.99335
G01 X91.41846Y37.06432
G01 X91.45882Y37.13166
G01 X91.50559Y37.19471
G01 X91.55831Y37.25289
G01 X91.61649Y37.30561
G01 X91.67954Y37.35238
G01 X91.74688Y37.39274
G01 X91.81785Y37.4263
G01 X91.89177Y37.45275
G01 X91.96793Y37.47183
G01 X92.04559Y37.48335
G01 X92.124Y37.4872
G01 X92.20241Y37.48335
G01 X92.28007Y37.47183
G01 X92.33035Y37.45923
G01 X93.35436Y38.48324
G01 X93.38344Y38.5096
G01 X93.41497Y38.53299
G01 X93.44864Y38.55317
G01 X93.48413Y38.56995
G01 X93.52109Y38.58318
G01 X93.55916Y38.59271
G01 X93.59799Y38.59847
G01 X93.6372Y38.6004
G01 X95.1332Y38.6004
G01 X95.1332Y38.8004
G01 X96.6332Y38.8004
G01 X96.6332Y37.6004
G01 X96.2832Y37.6004
G01 X96.2832Y35.94289
G01 X99.30446Y32.92163
G01 X99.936Y32.9244
G01 X100.01441Y32.92055
G01 X100.09207Y32.90903
G01 X100.16823Y32.88995
G01 X100.24215Y32.8635
G01 X100.31312Y32.82994
G01 X100.38046Y32.78958
G01 X100.44351Y32.74281
G01 X100.50169Y32.69009
G01 X100.55441Y32.63191
G01 X100.60118Y32.56886
G01 X100.64154Y32.50152
G01 X100.64154Y32.50152
M5
G01 X54.97242Y13.82328
M3
G01 X54.90316Y13.76051
G01 X54.82808Y13.70483
G01 X54.74791Y13.65677
G01 X54.66341Y13.6168
G01 X54.5754Y13.58531
G01 X54.48472Y13.5626
G01 X54.39226Y13.54889
G01 X54.2039Y13.5443
G01 X54.11054Y13.54889
G01 X54.01808Y13.5626
G01 X53.9274Y13.58531
G01 X53.83939Y13.6168
G01 X53.75489Y13.65677
G01 X53.67472Y13.70483
G01 X53.59964Y13.76051
G01 X53.53038Y13.82328
G01 X53.46761Y13.89254
G01 X53.41193Y13.96762
G01 X53.36387Y14.04779
G01 X53.3239Y14.13229
G01 X53.29241Y14.2203
G01 X53.2697Y14.31098
G01 X53.25599Y14.40344
G01 X53.2514Y14.4968
G01 X53.25599Y14.59016
G01 X53.2697Y14.68262
G01 X53.29241Y14.7733
G01 X53.3239Y14.86131
G01 X53.36387Y14.94581
G01 X53.41193Y15.02598
G01 X53.46761Y15.10106
G01 X53.53038Y15.17032
G01 X53.59964Y15.23309
G01 X53.67472Y15.28877
G01 X53.75489Y15.33683
G01 X53.83939Y15.3768
G01 X53.9274Y15.40829
G01 X54.01808Y15.431
G01 X54.11054Y15.44471
G01 X54.2989Y15.4493
G01 X54.39226Y15.44471
G01 X54.48472Y15.431
G01 X54.5754Y15.40829
G01 X54.59145Y15.40254
G01 X56.25456Y17.06564
G01 X56.28364Y17.092
G01 X56.31517Y17.11539
G01 X56.34884Y17.13557
G01 X56.38433Y17.15235
G01 X56.42129Y17.16558
G01 X56.45936Y17.17511
G01 X56.49819Y17.18087
G01 X56.5374Y17.1828
G01 X71.9548Y17.1828
G01 X71.9548Y17.3078
G01 X73.4548Y17.3078
G01 X73.4548Y16.2578
G01 X73.1048Y16.2578
G01 X73.1048Y14.72209
G01 X73.46549Y14.3614
G01 X74.1748Y14.3614
G01 X74.1748Y13.3114
G01 X72.6748Y13.3114
G01 X72.6748Y14.02071
G01 X72.42196Y14.27356
G01 X72.3956Y14.30264
G01 X72.37221Y14.33417
G01 X72.35203Y14.36784
G01 X72.33525Y14.40333
G01 X72.32202Y14.44029
G01 X72.31249Y14.47836
G01 X72.30673Y14.51719
G01 X72.3048Y14.5564
G01 X72.3048Y16.2578
G01 X71.9548Y16.2578
G01 X71.9548Y16.3828
G01 X56.70309Y16.3828
G01 X55.17961Y14.85932
G01 X55.21039Y14.7733
G01 X55.2331Y14.68262
G01 X55.24681Y14.59016
G01 X55.2514Y14.4968
G01 X55.24681Y14.40344
G01 X55.2331Y14.31098
G01 X55.21039Y14.2203
G01 X55.1789Y14.13229
G01 X55.13893Y14.04779
G01 X55.09087Y13.96762
G01 X55.03519Y13.89254
G01 X54.97242Y13.82328
G01 X54.97242Y13.82328
M5
G01 X105.956Y38.0044
M3
G01 X108.356Y38.0044
G01 X108.356Y36.4044
G01 X105.956Y36.4044
G01 X105.956Y38.0044
G01 X105.956Y38.0044
M5
G01 X107.93312Y35.36994
M3
G01 X108.00046Y35.32958
G01 X108.06351Y35.28281
G01 X108.12169Y35.23009
G01 X108.17441Y35.17191
G01 X108.22118Y35.10886
G01 X108.26154Y35.04152
G01 X108.2951Y34.97055
G01 X108.32155Y34.89663
G01 X108.34063Y34.82047
G01 X108.35215Y34.74281
G01 X108.356Y34.6644
G01 X108.35215Y34.58599
G01 X108.34063Y34.50833
G01 X108.32155Y34.43217
G01 X108.2951Y34.35825
G01 X108.26154Y34.28728
G01 X108.22118Y34.21994
G01 X108.17441Y34.15689
G01 X108.12169Y34.09871
G01 X108.06351Y34.04599
G01 X108.00046Y33.99922
G01 X107.93312Y33.95886
G01 X107.86215Y33.9253
G01 X107.78823Y33.89885
G01 X107.71207Y33.87977
G01 X107.63441Y33.86825
G01 X106.756Y33.8644
G01 X106.67759Y33.86825
G01 X106.59993Y33.87977
G01 X106.52377Y33.89885
G01 X106.44985Y33.9253
G01 X106.37888Y33.95886
G01 X106.31154Y33.99922
G01 X106.24849Y34.04599
G01 X106.19031Y34.09871
G01 X106.13759Y34.15689
G01 X106.09082Y34.21994
G01 X106.05046Y34.28728
G01 X106.0169Y34.35825
G01 X105.99045Y34.43217
G01 X105.97137Y34.50833
G01 X105.95985Y34.58599
G01 X105.956Y34.6644
G01 X105.95985Y34.74281
G01 X105.97137Y34.82047
G01 X105.99045Y34.89663
G01 X106.0169Y34.97055
G01 X106.05046Y35.04152
G01 X106.09082Y35.10886
G01 X106.13759Y35.17191
G01 X106.19031Y35.23009
G01 X106.24849Y35.28281
G01 X106.31154Y35.32958
G01 X106.37888Y35.36994
G01 X106.44985Y35.4035
G01 X106.52377Y35.42995
G01 X106.59993Y35.44903
G01 X106.67759Y35.46055
G01 X107.556Y35.4644
G01 X107.63441Y35.46055
G01 X107.71207Y35.44903
G01 X107.78823Y35.42995
G01 X107.86215Y35.4035
G01 X107.93312Y35.36994
G01 X107.93312Y35.36994
M5
G01 X107.86215Y32.8635
M3
G01 X107.93312Y32.82994
G01 X108.00046Y32.78958
G01 X108.06351Y32.74281
G01 X108.12169Y32.69009
G01 X108.17441Y32.63191
G01 X108.22118Y32.56886
G01 X108.26154Y32.50152
G01 X108.2951Y32.43055
G01 X108.32155Y32.35663
G01 X108.34063Y32.28047
G01 X108.35215Y32.20281
G01 X108.356Y32.1244
G01 X108.35215Y32.04599
G01 X108.34063Y31.96833
G01 X108.32155Y31.89217
G01 X108.2951Y31.81825
G01 X108.26154Y31.74728
G01 X108.22118Y31.67994
G01 X108.17441Y31.61689
G01 X108.12169Y31.55871
G01 X108.06351Y31.50599
G01 X108.00046Y31.45922
G01 X107.93312Y31.41886
G01 X107.86215Y31.3853
G01 X107.78823Y31.35885
G01 X107.71207Y31.33977
G01 X107.63441Y31.32825
G01 X106.756Y31.3244
G01 X106.67759Y31.32825
G01 X106.59993Y31.33977
G01 X106.52377Y31.35885
G01 X106.44985Y31.3853
G01 X106.37888Y31.41886
G01 X106.31154Y31.45922
G01 X106.24849Y31.50599
G01 X106.19031Y31.55871
G01 X106.13759Y31.61689
G01 X106.09082Y31.67994
G01 X106.05046Y31.74728
G01 X106.0169Y31.81825
G01 X105.99045Y31.89217
G01 X105.97137Y31.96833
G01 X105.95985Y32.04599
G01 X105.956Y32.1244
G01 X105.95985Y32.20281
G01 X105.97137Y32.28047
G01 X105.99045Y32.35663
G01 X106.0169Y32.43055
G01 X106.05046Y32.50152
G01 X106.09082Y32.56886
G01 X106.13759Y32.63191
G01 X106.19031Y32.69009
G01 X106.24849Y32.74281
G01 X106.31154Y32.78958
G01 X106.37888Y32.82994
G01 X106.44985Y32.8635
G01 X106.52377Y32.88995
G01 X106.59993Y32.90903
G01 X106.67759Y32.92055
G01 X107.556Y32.9244
G01 X107.63441Y32.92055
G01 X107.71207Y32.90903
G01 X107.78823Y32.88995
G01 X107.86215Y32.8635
G01 X107.86215Y32.8635
M5
G01 X109.07333Y13.10162
M3
G01 X109.05429Y13.09685
G01 X109.03525Y13.09208
G01 X109.03525Y13.09208
G01 X109.03525Y13.09208
G01 X109.01583Y13.0892
G01 X108.99642Y13.08632
G01 X108.99642Y13.08632
G01 X108.99642Y13.08632
G01 X108.97682Y13.08536
G01 X108.95721Y13.0844
G01 X108.95721Y13.0844
G01 X108.95721Y13.0844
G01 X108.03648Y13.0844
G01 X106.74994Y11.79786
G01 X106.7502Y11.79714
G01 X106.77047Y11.71623
G01 X106.78271Y11.63371
G01 X106.7868Y11.5504
G01 X106.78271Y11.46709
G01 X106.77047Y11.38457
G01 X106.7502Y11.30366
G01 X106.7221Y11.22512
G01 X106.68643Y11.14971
G01 X106.64355Y11.07817
G01 X106.59386Y11.01117
G01 X106.53784Y10.94936
G01 X106.47603Y10.89334
G01 X106.40903Y10.84365
G01 X106.33749Y10.80077
G01 X106.26208Y10.7651
G01 X106.18354Y10.737
G01 X106.10263Y10.71673
G01 X106.02011Y10.70449
G01 X105.9368Y10.7004
G01 X105.85349Y10.70449
G01 X105.77097Y10.71673
G01 X105.69006Y10.737
G01 X105.61152Y10.7651
G01 X105.53611Y10.80077
G01 X105.46457Y10.84365
G01 X105.39757Y10.89334
G01 X105.33576Y10.94936
G01 X105.27974Y11.01117
G01 X105.23005Y11.07817
G01 X105.18717Y11.14971
G01 X105.1515Y11.22512
G01 X105.1234Y11.30366
G01 X105.10313Y11.38457
G01 X105.09089Y11.46709
G01 X105.0868Y11.5504
G01 X105.09089Y11.63371
G01 X105.10313Y11.71623
G01 X105.1234Y11.79714
G01 X105.1515Y11.87568
G01 X105.18717Y11.95109
G01 X105.23005Y12.02263
G01 X105.27974Y12.08963
G01 X105.33576Y12.15144
G01 X105.39757Y12.20746
G01 X105.46457Y12.25715
G01 X105.53611Y12.30003
G01 X105.61152Y12.3357
G01 X105.69006Y12.3638
G01 X105.77097Y12.38407
G01 X105.85349Y12.39631
G01 X105.9368Y12.4004
G01 X106.02011Y12.39631
G01 X106.10263Y12.38407
G01 X106.18354Y12.3638
G01 X106.18426Y12.36354
G01 X107.58796Y13.76724
G01 X107.58796Y13.76724
G01 X107.58796Y13.76724
G01 X107.6025Y13.78042
G01 X107.61704Y13.7936
G01 X107.61704Y13.7936
G01 X107.61704Y13.7936
G01 X107.63281Y13.8053
G01 X107.64857Y13.81699
G01 X107.64857Y13.81699
G01 X107.64857Y13.81699
G01 X107.66541Y13.82708
G01 X107.68224Y13.83717
G01 X107.68224Y13.83717
G01 X107.68224Y13.83717
G01 X107.69998Y13.84556
G01 X107.71773Y13.85395
G01 X107.71773Y13.85395
G01 X107.71773Y13.85395
G01 X107.73621Y13.86056
G01 X107.75469Y13.86718
G01 X107.75469Y13.86718
G01 X107.75469Y13.86718
G01 X107.77372Y13.87194
G01 X107.79276Y13.87671
G01 X107.79276Y13.87671
G01 X107.79276Y13.87671
G01 X107.81218Y13.87959
G01 X107.83159Y13.88247
G01 X107.83159Y13.88247
G01 X107.83159Y13.88247
G01 X107.8512Y13.88344
G01 X107.8708Y13.8844
G01 X107.8708Y13.8844
G01 X107.8708Y13.8844
G01 X108.79153Y13.8844
G01 X110.5848Y15.67767
G01 X110.5848Y20.50991
G01 X107.38754Y23.70717
G01 X106.756Y23.7044
G01 X106.67759Y23.70825
G01 X106.59993Y23.71977
G01 X106.52377Y23.73885
G01 X106.44985Y23.7653
G01 X106.37888Y23.79886
G01 X106.31154Y23.83922
G01 X106.24849Y23.88599
G01 X106.19031Y23.93871
G01 X106.13759Y23.99689
G01 X106.09082Y24.05994
G01 X106.05046Y24.12728
G01 X106.0169Y24.19825
G01 X105.99045Y24.27217
G01 X105.97137Y24.34833
G01 X105.95985Y24.42599
G01 X105.956Y24.5044
G01 X105.95985Y24.58281
G01 X105.97137Y24.66047
G01 X105.99045Y24.73663
G01 X106.0169Y24.81055
G01 X106.05046Y24.88152
G01 X106.09082Y24.94886
G01 X106.13759Y25.01191
G01 X106.19031Y25.07009
G01 X106.24849Y25.12281
G01 X106.31154Y25.16958
G01 X106.37888Y25.20994
G01 X106.44985Y25.2435
G01 X106.52377Y25.26995
G01 X106.59993Y25.28903
G01 X106.67759Y25.30055
G01 X107.556Y25.3044
G01 X107.63441Y25.30055
G01 X107.71207Y25.28903
G01 X107.78823Y25.26995
G01 X107.86215Y25.2435
G01 X107.93312Y25.20994
G01 X108.00046Y25.16958
G01 X108.06351Y25.12281
G01 X108.12169Y25.07009
G01 X108.17441Y25.01191
G01 X108.22118Y24.94886
G01 X108.26154Y24.88152
G01 X108.2951Y24.81055
G01 X108.32155Y24.73663
G01 X108.34063Y24.66047
G01 X108.35215Y24.58281
G01 X108.356Y24.5044
G01 X108.35215Y24.42599
G01 X108.34063Y24.34833
G01 X108.32155Y24.27217
G01 X108.2951Y24.19825
G01 X108.26154Y24.12728
G01 X108.22118Y24.05994
G01 X108.19774Y24.02835
G01 X111.26764Y20.95844
G01 X111.29401Y20.92936
G01 X111.31739Y20.89783
G01 X111.33757Y20.86416
G01 X111.35435Y20.82867
G01 X111.36758Y20.79171
G01 X111.37712Y20.75364
G01 X111.38287Y20.71481
G01 X111.3848Y20.6756
G01 X111.3848Y15.51199
G01 X111.3848Y15.51199
G01 X111.38287Y15.47278
G01 X111.37712Y15.43395
G01 X111.36758Y15.39587
G01 X111.35435Y15.35891
G01 X111.33757Y15.32343
G01 X111.31739Y15.28976
G01 X111.29401Y15.25823
G01 X111.26764Y15.22914
G01 X109.24005Y13.20156
G01 X109.24005Y13.20156
G01 X109.24005Y13.20156
G01 X109.22551Y13.18837
G01 X109.21097Y13.17519
G01 X109.21097Y13.17519
G01 X109.21097Y13.17519
G01 X109.1952Y13.1635
G01 X109.17944Y13.15181
G01 X109.17944Y13.15181
G01 X109.17944Y13.15181
G01 X109.16261Y13.14172
G01 X109.14577Y13.13163
G01 X109.14577Y13.13163
G01 X109.14577Y13.13163
G01 X109.12803Y13.12324
G01 X109.11029Y13.11485
G01 X109.11029Y13.11485
G01 X109.11029Y13.11485
G01 X109.09181Y13.10823
G01 X109.07333Y13.10162
G01 X109.07333Y13.10162
G01 X109.07333Y13.10162
G01 X109.07333Y13.10162
M5
G01 X110.37712Y15.84816
M3
G01 X110.37712Y15.84816
G01 X110.37235Y15.82913
G01 X110.36758Y15.81009
G01 X110.36758Y15.81009
G01 X110.36758Y15.81009
G01 X110.36096Y15.79161
G01 X110.35435Y15.77313
G01 X110.35435Y15.77313
G01 X110.35435Y15.77313
G01 X110.34596Y15.75539
G01 X110.33757Y15.73764
G01 X110.33757Y15.73764
G01 X110.33757Y15.73764
G01 X110.32748Y15.72081
G01 X110.31739Y15.70397
G01 X110.31739Y15.70397
G01 X110.31739Y15.70397
G01 X110.3057Y15.68821
G01 X110.29401Y15.67244
G01 X110.29401Y15.67244
G01 X110.29401Y15.67244
G01 X110.28082Y15.6579
G01 X110.26764Y15.64336
G01 X110.26764Y15.64336
G01 X110.26764Y15.64336
G01 X108.82584Y14.20156
G01 X108.82584Y14.20156
G01 X108.82584Y14.20156
G01 X108.8113Y14.18838
G01 X108.79676Y14.17519
G01 X108.79676Y14.17519
G01 X108.79676Y14.17519
G01 X108.78099Y14.1635
G01 X108.76523Y14.15181
G01 X108.76523Y14.15181
G01 X108.76523Y14.15181
G01 X108.74839Y14.14172
G01 X108.73156Y14.13163
G01 X108.73156Y14.13163
G01 X108.73156Y14.13163
G01 X108.71381Y14.12324
G01 X108.69607Y14.11485
G01 X108.69607Y14.11485
G01 X108.69607Y14.11485
G01 X108.67759Y14.10824
G01 X108.65911Y14.10162
G01 X108.65911Y14.10162
G01 X108.65911Y14.10162
G01 X108.64007Y14.09685
G01 X108.62104Y14.09208
G01 X108.62104Y14.09208
G01 X108.62104Y14.09208
G01 X108.60162Y14.0892
G01 X108.58221Y14.08633
G01 X108.58221Y14.08633
G01 X108.58221Y14.08633
G01 X108.5626Y14.08536
G01 X108.543Y14.0844
G01 X108.543Y14.0844
G01 X108.543Y14.0844
G01 X105.3707Y14.0844
G01 X103.7968Y12.5105
G01 X103.7968Y12.30036
G01 X103.79749Y12.30003
G01 X103.86903Y12.25715
G01 X103.93603Y12.20746
G01 X103.99784Y12.15144
G01 X104.05386Y12.08963
G01 X104.10355Y12.02263
G01 X104.14643Y11.95109
G01 X104.1821Y11.87568
G01 X104.2102Y11.79714
G01 X104.23047Y11.71623
G01 X104.24271Y11.63371
G01 X104.2468Y11.5504
G01 X104.24271Y11.46709
G01 X104.23047Y11.38457
G01 X104.2102Y11.30366
G01 X104.1821Y11.22512
G01 X104.14643Y11.14971
G01 X104.10355Y11.07817
G01 X104.05386Y11.01117
